; generated by PrusaSlicer 2.9.2 on 2025-08-25 at 10:30:43 UTC


;
;
; 

; external perimeters extrusion width = 0.45mm
; perimeters extrusion width = 0.45mm
; infill extrusion width = 0.45mm
; solid infill extrusion width = 0.45mm
; top infill extrusion width = 0.40mm
; first layer extrusion width = 0.42mm

; external perimeters extrusion width = 0.45mm
; perimeters extrusion width = 0.45mm
; infill extrusion width = 0.45mm
; solid infill extrusion width = 0.45mm
; top infill extrusion width = 0.40mm
; first layer extrusion width = 0.42mm

M73 P0 R4
M73 Q0 S4
M201 X1000 Y1000 Z200 E5000 ; sets maximum accelerations, mm/sec^2
M203 X200 Y200 Z12 E120 ; sets maximum feedrates, mm / sec
M204 S1250 T1250 ; sets acceleration (S) and retract acceleration (R), mm/sec^2
M205 X8.00 Y8.00 Z0.40 E4.50 ; sets the jerk limits, mm/sec
M205 S0 T0 ; sets the minimum extruding and travel feed rate, mm/sec

; printing object fmBoxPlus.stl id:1 copy 0
; stop printing object fmBoxPlus.stl id:1 copy 0
; printing object fmBoxMinus.stl id:0 copy 0
; stop printing object fmBoxMinus.stl id:0 copy 0

;TYPE:Custom
M862.3 P "MK3S" ; printer model check
M862.1 P0.4 ; nozzle diameter check
M115 U3.13.3 ; tell printer latest fw version
G90 ; use absolute coordinates
M83 ; extruder relative mode
M104 S240 ; set extruder temp
M140 S85 ; set bed temp
M190 S85 ; wait for bed temp
M109 S240 ; wait for extruder temp
G28 W ; home all without mesh bed level
G80 X118.746 Y98.2458 W22.5083 H13.5083 ; mesh bed levelling

G1 Z0.2 F720
G1 Y-3 F1000 ; go outside print area
G92 E0
G1 X60 E9 F1000 ; intro line
G1 X100 E12.5 F1000 ; intro line
M73 P1 R4
M73 Q1 S4

G92 E0
M221 S95

; Don't change E values below. Excessive value can damage the printer.
M907 E430 ; set extruder motor current
G21 ; set units to millimeters
G90 ; use absolute coordinates
M83 ; use relative distances for extrusion

M900 K0.08 ; Filament gcode LA 1.5
M900 K45 ; Filament gcode LA 1.0




M107
;LAYER_CHANGE
;Z:0.2
;HEIGHT:0.2
G1 E-1 F2100
M73 P2 R4
M73 Q2 S4
G1 Z.4 F720
G1 X119.327 Y99.637 F10800
G1 Z.2 F720
G1 E1 F2100
M204 S800
;TYPE:Skirt/Brim
;WIDTH:0.42
G1 F600
G1 X120.383 Y98.69 E.04447
G1 X121.5 Y98.434 E.03593
G1 X138.5 Y98.434 E.53302
G1 X139.863 Y98.827 E.04448
M73 P3 R4
M73 Q3 S4
G1 X140.81 Y99.883 E.04447
G1 X141.066 Y101 E.03593
G1 X141.066 Y109 E.25083
G1 X140.673 Y110.363 E.04448
G1 X139.617 Y111.31 E.04447
G1 X138.5 Y111.566 E.03593
G1 X121.5 Y111.566 E.53302
G1 X120.137 Y111.173 E.04448
M73 P4 R4
M73 Q4 S4
G1 X119.19 Y110.117 E.04447
G1 X118.934 Y109 E.03593
G1 X118.934 Y101 E.25083
G1 X119.31 Y99.694 E.04261
M73 Q5 S4
M204 S1000
G1 X119.684 Y99.811 F10800
M204 S800
G1 F600
G1 X119.702 Y99.752 E.00193
G1 X120.735 Y98.949 E.04102
G1 X121.5 Y98.811 E.02437
G1 X138.5 Y98.811 E.53302
M73 P5 R4
G1 X139.748 Y99.202 E.04101
G1 X140.551 Y100.235 E.04102
G1 X140.689 Y101 E.02437
G1 X140.689 Y109 E.25083
G1 X140.298 Y110.248 E.04101
M73 P6 R4
M73 Q6 S4
G1 X139.265 Y111.051 E.04102
G1 X138.5 Y111.189 E.02437
G1 X121.5 Y111.189 E.53302
G1 X120.252 Y110.798 E.04101
G1 X119.449 Y109.765 E.04102
G1 X119.311 Y109 E.02437
G1 X119.311 Y101 E.25083
M73 Q7 S4
G1 X119.666 Y99.869 E.03717
M73 P7 R4
M204 S1000
;WIPE_START
G1 F8640
G1 X119.684 Y99.811 E-.01402
G1 X119.702 Y99.752 E-.01424
G1 X120.735 Y98.949 E-.30211
G1 X121.5 Y98.811 E-.17949
G1 X123.623 Y98.811 E-.49014
;WIPE_END
G1 Z.4 F720
; printing object fmBoxPlus.stl id:1 copy 0
G1 X137.713 Y108.213 F10800
G1 Z.2 F720
G1 E1 F2100
M204 S800
;TYPE:Perimeter
;WIDTH:0.419999
G1 F600
G1 X132.287 Y108.213 E.17013
G1 X132.287 Y101.787 E.20148
G1 X137.713 Y101.787 E.17013
G1 X137.713 Y104.5 E.08506
M73 P8 R4
M73 Q8 S4
G1 X137.713 Y108.153 E.11454
M204 S1000
G1 X138.09 Y108.59 F10800
M204 S800
;TYPE:External perimeter
G1 F600
G1 X131.91 Y108.59 E.19377
G1 X131.91 Y101.41 E.22512
G1 X138.09 Y101.41 E.19377
G1 X138.09 Y104.5 E.09688
M73 Q9 S4
G1 X138.09 Y108.53 E.12636
M73 P9 R4
M204 S1000
;WIPE_START
G1 F8640
G1 X138.09 Y108.59 E-.01385
G1 X133.819 Y108.59 E-.98615
;WIPE_END
G1 Z.4 F720
G1 X136.777 Y101.957 F10800
G1 Z.2 F720
G1 E1 F2100
M204 S800
;TYPE:Solid infill
;WIDTH:0.421671
G1 F600
G1 X137.374 Y102.553 E.02657
G1 X137.374 Y103.089 E.01688
G1 X136.411 Y102.126 E.04289
G1 X135.876 Y102.126 E.01685
G1 X137.374 Y103.624 E.06672
G1 X137.374 Y104.16 E.01688
G1 X135.34 Y102.126 E.09059
G1 X134.805 Y102.126 E.01685
G1 X137.374 Y104.695 E.11442
G1 X137.374 Y105.231 E.01688
G1 X134.269 Y102.126 E.13829
G1 X133.733 Y102.126 E.01688
M73 P10 R4
M73 Q10 S4
G1 X137.374 Y105.767 E.16216
G1 X137.374 Y106.302 E.01685
G1 X133.198 Y102.126 E.18599
G1 X132.662 Y102.126 E.01688
G1 X137.374 Y106.838 E.20986
G1 X137.374 Y107.374 E.01688
G1 X132.626 Y102.627 E.21145
G1 X132.626 Y103.162 E.01685
M73 Q11 S4
G1 X137.338 Y107.874 E.20986
M73 P11 R4
G1 X136.802 Y107.874 E.01688
G1 X132.626 Y103.698 E.18599
G1 X132.626 Y104.233 E.01685
G1 X136.267 Y107.874 E.16216
G1 X135.731 Y107.874 E.01688
G1 X132.626 Y104.769 E.13829
G1 X132.626 Y105.305 E.01688
G1 X135.195 Y107.874 E.11442
G1 X134.66 Y107.874 E.01685
M73 P12 R4
M73 Q12 S4
G1 X132.626 Y105.84 E.09059
G1 X132.626 Y106.376 E.01688
G1 X134.124 Y107.874 E.06672
G1 X133.588 Y107.874 E.01688
G1 X132.626 Y106.912 E.04285
G1 X132.626 Y107.447 E.01685
G1 X133.222 Y108.043 E.02654
M204 S1000
;WIPE_START
G1 F8640
G1 X132.626 Y107.447 E-.19462
G1 X132.626 Y106.912 E-.12353
G1 X133.588 Y107.874 E-.31414
G1 X134.124 Y107.874 E-.12376
G1 X133.377 Y107.127 E-.24395
;WIPE_END
G1 Z.4 F720
; stop printing object fmBoxPlus.stl id:1 copy 0
; printing object fmBoxMinus.stl id:0 copy 0
G1 X127.713 Y108.213 F10800
G1 Z.2 F720
G1 E1 F2100
M204 S800
;TYPE:Perimeter
;WIDTH:0.419999
G1 F600
G1 X122.287 Y108.213 E.17013
G1 X122.287 Y101.787 E.20148
G1 X127.713 Y101.787 E.17013
M73 Q13 S4
G1 X127.713 Y104.5 E.08506
M73 P13 R4
G1 X127.713 Y108.153 E.11454
M204 S1000
G1 X128.09 Y108.59 F10800
M204 S800
;TYPE:External perimeter
G1 F600
G1 X121.91 Y108.59 E.19377
G1 X121.91 Y101.41 E.22512
G1 X128.09 Y101.41 E.19377
G1 X128.09 Y104.5 E.09688
M73 P14 R3
M73 Q14 S4
G1 X128.09 Y108.53 E.12636
M204 S1000
;WIPE_START
G1 F8640
G1 X128.09 Y108.59 E-.01385
G1 X123.819 Y108.59 E-.98615
;WIPE_END
G1 Z.4 F720
M73 Q14 S3
G1 X126.777 Y101.957 F10800
G1 Z.2 F720
G1 E1 F2100
M204 S800
;TYPE:Solid infill
;WIDTH:0.421671
G1 F600
G1 X127.374 Y102.553 E.02657
G1 X127.374 Y103.089 E.01688
G1 X126.411 Y102.126 E.04289
G1 X125.876 Y102.126 E.01685
G1 X127.374 Y103.624 E.06672
G1 X127.374 Y104.16 E.01688
G1 X125.34 Y102.126 E.09059
G1 X124.805 Y102.126 E.01685
G1 X127.374 Y104.695 E.11442
G1 X127.374 Y105.231 E.01688
M73 Q15 S3
G1 X124.269 Y102.126 E.13829
G1 X123.733 Y102.126 E.01688
M73 P15 R3
G1 X127.374 Y105.767 E.16216
G1 X127.374 Y106.302 E.01685
G1 X123.198 Y102.126 E.18599
G1 X122.662 Y102.126 E.01688
G1 X127.374 Y106.838 E.20986
G1 X127.374 Y107.374 E.01688
G1 X122.626 Y102.627 E.21145
G1 X122.626 Y103.162 E.01685
M73 P16 R3
M73 Q16 S3
G1 X127.338 Y107.874 E.20986
G1 X126.802 Y107.874 E.01688
G1 X122.626 Y103.698 E.18599
G1 X122.626 Y104.233 E.01685
G1 X126.267 Y107.874 E.16216
G1 X125.731 Y107.874 E.01688
G1 X122.626 Y104.769 E.13829
G1 X122.626 Y105.305 E.01688
M73 Q17 S3
G1 X125.195 Y107.874 E.11442
M73 P17 R3
G1 X124.66 Y107.874 E.01685
G1 X122.626 Y105.84 E.09059
G1 X122.626 Y106.376 E.01688
G1 X124.124 Y107.874 E.06672
G1 X123.588 Y107.874 E.01688
G1 X122.626 Y106.912 E.04285
G1 X122.626 Y107.447 E.01685
G1 X123.222 Y108.043 E.02654
M204 S1000
;LAYER_CHANGE
;Z:0.4
;HEIGHT:0.2
;BEFORE_LAYER_CHANGE
G92 E0.0
;0.4


;WIPE_START
G1 F8640
G1 X122.626 Y107.447 E-.19462
G1 X122.626 Y106.912 E-.12353
G1 X123.588 Y107.874 E-.31414
G1 X124.124 Y107.874 E-.12376
G1 X123.377 Y107.127 E-.24395
;WIPE_END
G1 Z.4 F720
;AFTER_LAYER_CHANGE
;0.4
M104 S250 ; set temperature
M140 S90 ; set bed temperature
; stop printing object fmBoxMinus.stl id:0 copy 0
G1 Z.6
G1 X123.222 Y111.566 F10800
G1 Z.4 F720
G1 E1 F2100
;TYPE:Skirt/Brim
;WIDTH:0.42
G1 F1902
G1 X121.5 Y111.566 E.05399
G1 X120.137 Y111.173 E.04448
G1 X119.19 Y110.117 E.04447
G1 X118.934 Y109 E.03593
G1 X118.934 Y101 E.25083
G1 X119.327 Y99.637 E.04448
G1 X120.383 Y98.69 E.04447
G1 X121.5 Y98.434 E.03593
G1 X138.5 Y98.434 E.53302
G1 X139.863 Y98.827 E.04448
M73 P18 R3
M73 Q18 S3
G1 X140.81 Y99.883 E.04447
G1 X141.066 Y101 E.03593
G1 X141.066 Y109 E.25083
G1 X140.673 Y110.363 E.04448
G1 X139.617 Y111.31 E.04447
G1 X138.5 Y111.566 E.03593
G1 X123.282 Y111.566 E.47715
G1 X123.282 Y111.189 F10800
G1 F1902
G1 X121.5 Y111.189 E.05587
G1 X120.252 Y110.798 E.04101
G1 X119.449 Y109.765 E.04102
G1 X119.311 Y109 E.02437
G1 X119.311 Y101 E.25083
G1 X119.702 Y99.752 E.04101
G1 X120.735 Y98.949 E.04102
G1 X121.5 Y98.811 E.02437
G1 X138.5 Y98.811 E.53302
G1 X139.748 Y99.202 E.04101
G1 X140.551 Y100.235 E.04102
G1 X140.689 Y101 E.02437
G1 X140.689 Y109 E.25083
G1 X140.298 Y110.248 E.04101
G1 X139.265 Y111.051 E.04102
M73 Q19 S3
G1 X138.5 Y111.189 E.02437
G1 X123.342 Y111.189 E.47527
M73 P19 R3
;WIPE_START
G1 F8640
G1 X123.282 Y111.189 E-.01385
G1 X121.5 Y111.189 E-.41147
G1 X120.252 Y110.798 E-.30198
G1 X119.528 Y109.865 E-.2727
;WIPE_END
G1 Z.6 F720
; printing object fmBoxPlus.stl id:1 copy 0
G1 X137.868 Y108.368 F10800
G1 Z.4 F720
G1 E1 F2100
M204 S800
;TYPE:Perimeter
;WIDTH:0.449999
G1 F1500
G1 X132.132 Y108.368 E.19416
G1 X132.132 Y101.632 E.22801
G1 X137.868 Y101.632 E.19416
G1 X137.868 Y108.308 E.22597
M204 S1000
G1 X138.275 Y108.775 F10800
M204 S800
;TYPE:External perimeter
G1 F1500
G1 X137.6 Y108.775 E.02285
G1 X132.4 Y108.775 E.17601
G1 X131.725 Y108.775 E.02285
G1 X131.725 Y108.1 E.02285
G1 X131.725 Y101.9 E.20986
G1 X131.725 Y101.225 E.02285
M73 Q20 S3
G1 X132.4 Y101.225 E.02285
G1 X137.6 Y101.225 E.17601
G1 X138.275 Y101.225 E.02285
M73 P20 R3
G1 X138.275 Y101.9 E.02285
G1 X138.275 Y108.1 E.20986
G1 X138.275 Y108.715 E.02082
M204 S1000
;WIPE_START
G1 F8640
G1 X138.275 Y108.775 E-.01385
G1 X137.6 Y108.775 E-.15586
G1 X134.004 Y108.775 E-.83029
;WIPE_END
G1 Z.6 F720
G1 X132.609 Y102.031 F10800
G1 Z.4 F720
G1 E1 F2100
;TYPE:Solid infill
;WIDTH:0.548766
G1 F1902
G1 X132.564 Y101.987 E.00265
G1 X132.503 Y102.003 E.00265
G1 X132.487 Y102.064 E.00265
G1 X132.531 Y102.109 E.00265
G1 X132.593 Y102.093 E.00269
G1 X132.366 Y102.888 F10800
;WIDTH:0.38292
G1 F1902
G1 X132.295 Y102.869 E.00208
G1 X132.314 Y102.94 E.00208
G1 X132.355 Y102.929 E.0012
;WIDTH:0.41646
G1 X132.427 Y102.836 E.00365
;WIDTH:0.449999
G1 X132.498 Y102.743 E.00396
G1 X133.243 Y101.998 E.03566
G1 X133.336 Y101.927 E.00396
;WIDTH:0.41646
G1 X133.429 Y101.855 E.00365
;WIDTH:0.38292
G1 X133.388 Y101.866 E.0012
G1 X133.369 Y101.795 E.00208
G1 X133.44 Y101.814 E.00208
;WIDTH:0.449999
G1 X133.818 Y101.998 E.01423
G1 X132.498 Y103.318 E.06319
G1 X132.498 Y103.894 E.0195
G1 X134.394 Y101.998 E.09076
G1 X134.97 Y101.998 E.0195
G1 X132.498 Y104.47 E.11833
G1 X132.498 Y105.046 E.0195
G1 X135.546 Y101.998 E.14591
G1 X136.121 Y101.998 E.01946
G1 X132.498 Y105.621 E.17343
G1 X132.498 Y106.197 E.0195
G1 X136.697 Y101.998 E.201
G1 X137.273 Y101.998 E.0195
G1 X132.498 Y106.773 E.22858
G1 X132.498 Y107.348 E.01946
G1 X137.502 Y102.345 E.23951
G1 X137.502 Y102.921 E.0195
M73 Q21 S3
G1 X132.498 Y107.924 E.23951
G1 X132.43 Y108.031 E.00429
M73 P21 R3
;WIDTH:0.41646
G1 X132.362 Y108.138 E.00394
;WIDTH:0.38292
G1 X132.582 Y108.155 E.00624
;WIDTH:0.449999
G1 X132.997 Y108.002 E.01497
G1 X137.502 Y103.497 E.21565
G1 X137.502 Y104.072 E.01946
G1 X133.572 Y108.002 E.18813
G1 X134.148 Y108.002 E.0195
G1 X137.502 Y104.648 E.16055
G1 X137.502 Y105.224 E.0195
G1 X134.724 Y108.002 E.13298
G1 X135.299 Y108.002 E.01946
G1 X137.502 Y105.799 E.10546
G1 X137.603 Y105.736 E.00403
;WIDTH:0.41646
G1 X137.705 Y105.673 E.00372
;WIDTH:0.38292
G1 X137.664 Y105.684 E.0012
G1 X137.645 Y105.613 E.00208
G1 X137.716 Y105.632 E.00208
;WIDTH:0.449999
G1 X137.502 Y106.375 E.02617
G1 X137.502 Y108.002 E.05507
G1 X135.875 Y108.002 E.05507
G1 X137.358 Y106.519 E.07099
;WIPE_START
G1 F8640
G1 X135.875 Y108.002 E-.48427
G1 X137.502 Y108.002 E-.37568
G1 X137.502 Y107.396 E-.14005
;WIPE_END
G1 Z.6 F720
G1 X137.091 Y107.508 F10800
G1 Z.4 F720
G1 E1 F2100
;WIDTH:0.588578
G1 F1902
G1 X137.043 Y107.459 E.00311
G1 X136.977 Y107.477 E.0031
G1 X136.959 Y107.543 E.0031
G1 X137.008 Y107.591 E.00311
G1 X137.073 Y107.573 E.00306
;WIPE_START
G1 F8640
G1 X137.008 Y107.591 E-.01557
G1 X136.959 Y107.543 E-.01584
G1 X136.977 Y107.477 E-.0158
G1 X137.043 Y107.459 E-.0158
G1 X137.091 Y107.508 E-.01584
;WIPE_END
G1 E-.92115 F2100
G1 Z.6 F720
; stop printing object fmBoxPlus.stl id:1 copy 0
; printing object fmBoxMinus.stl id:0 copy 0
G1 X127.868 Y108.368 F10800
G1 Z.4 F720
G1 E1 F2100
M204 S800
;TYPE:Perimeter
;WIDTH:0.449999
G1 F1500
G1 X122.132 Y108.368 E.19416
G1 X122.132 Y101.632 E.22801
G1 X127.868 Y101.632 E.19416
M73 Q22 S3
G1 X127.868 Y108.308 E.22597
M73 P22 R3
M204 S1000
G1 X128.275 Y108.775 F10800
M204 S800
;TYPE:External perimeter
G1 F1500
G1 X127.6 Y108.775 E.02285
G1 X122.4 Y108.775 E.17601
G1 X121.725 Y108.775 E.02285
G1 X121.725 Y108.1 E.02285
G1 X121.725 Y101.9 E.20986
G1 X121.725 Y101.225 E.02285
G1 X122.4 Y101.225 E.02285
G1 X127.6 Y101.225 E.17601
G1 X128.275 Y101.225 E.02285
G1 X128.275 Y101.9 E.02285
G1 X128.275 Y108.1 E.20986
G1 X128.275 Y108.715 E.02082
M204 S1000
;WIPE_START
G1 F8640
G1 X128.275 Y108.775 E-.01385
G1 X127.6 Y108.775 E-.15586
G1 X124.004 Y108.775 E-.83029
;WIPE_END
G1 Z.6 F720
G1 X122.609 Y102.031 F10800
G1 Z.4 F720
G1 E1 F2100
;TYPE:Solid infill
;WIDTH:0.548766
G1 F1902
G1 X122.564 Y101.987 E.00265
G1 X122.503 Y102.003 E.00265
G1 X122.487 Y102.064 E.00265
G1 X122.531 Y102.109 E.00265
G1 X122.593 Y102.093 E.00269
G1 X122.366 Y102.888 F10800
;WIDTH:0.38292
G1 F1902
G1 X122.295 Y102.869 E.00208
G1 X122.314 Y102.94 E.00208
G1 X122.355 Y102.929 E.0012
;WIDTH:0.41646
G1 X122.427 Y102.836 E.00365
;WIDTH:0.449999
G1 X122.498 Y102.743 E.00396
G1 X123.243 Y101.998 E.03566
G1 X123.336 Y101.927 E.00396
;WIDTH:0.41646
G1 X123.429 Y101.855 E.00365
;WIDTH:0.38292
G1 X123.388 Y101.866 E.0012
G1 X123.369 Y101.795 E.00208
G1 X123.44 Y101.814 E.00208
;WIDTH:0.449999
G1 X123.818 Y101.998 E.01423
G1 X122.498 Y103.318 E.06319
G1 X122.498 Y103.894 E.0195
G1 X124.394 Y101.998 E.09076
G1 X124.97 Y101.998 E.0195
G1 X122.498 Y104.47 E.11833
G1 X122.498 Y105.046 E.0195
M73 Q23 S3
G1 X125.546 Y101.998 E.14591
G1 X126.121 Y101.998 E.01946
M73 P23 R3
G1 X122.498 Y105.621 E.17343
G1 X122.498 Y106.197 E.0195
G1 X126.697 Y101.998 E.201
G1 X127.273 Y101.998 E.0195
G1 X122.498 Y106.773 E.22858
G1 X122.498 Y107.348 E.01946
G1 X127.502 Y102.345 E.23951
G1 X127.502 Y102.921 E.0195
G1 X122.498 Y107.924 E.23951
G1 X122.43 Y108.031 E.00429
;WIDTH:0.41646
G1 X122.362 Y108.138 E.00394
;WIDTH:0.38292
G1 X122.582 Y108.155 E.00624
;WIDTH:0.449999
G1 X122.997 Y108.002 E.01497
G1 X127.502 Y103.497 E.21565
G1 X127.502 Y104.072 E.01946
G1 X123.572 Y108.002 E.18813
G1 X124.148 Y108.002 E.0195
G1 X127.502 Y104.648 E.16055
G1 X127.502 Y105.224 E.0195
G1 X124.724 Y108.002 E.13298
G1 X125.299 Y108.002 E.01946
G1 X127.502 Y105.799 E.10546
G1 X127.603 Y105.736 E.00403
;WIDTH:0.41646
G1 X127.705 Y105.673 E.00372
;WIDTH:0.38292
G1 X127.664 Y105.684 E.0012
G1 X127.645 Y105.613 E.00208
G1 X127.716 Y105.632 E.00208
;WIDTH:0.449999
G1 X127.502 Y106.375 E.02617
G1 X127.502 Y108.002 E.05507
G1 X125.875 Y108.002 E.05507
G1 X127.358 Y106.519 E.07099
;WIPE_START
G1 F8640
G1 X125.875 Y108.002 E-.48427
G1 X127.502 Y108.002 E-.37568
M73 Q24 S3
G1 X127.502 Y107.396 E-.14005
M73 P24 R3
;WIPE_END
G1 Z.6 F720
G1 X127.091 Y107.508 F10800
G1 Z.4 F720
G1 E1 F2100
;WIDTH:0.588578
G1 F1902
G1 X127.043 Y107.459 E.00311
G1 X126.977 Y107.477 E.0031
G1 X126.959 Y107.543 E.0031
G1 X127.008 Y107.591 E.00311
G1 X127.073 Y107.573 E.00306
;LAYER_CHANGE
;Z:0.6
;HEIGHT:0.2
;BEFORE_LAYER_CHANGE
G92 E0.0
;0.6


;WIPE_START
G1 F8640
G1 X127.008 Y107.591 E-.01557
G1 X126.959 Y107.543 E-.01584
G1 X126.977 Y107.477 E-.0158
G1 X127.043 Y107.459 E-.0158
G1 X127.091 Y107.508 E-.01584
;WIPE_END
G1 E-.92115 F2100
G1 Z.6 F720
;AFTER_LAYER_CHANGE
;0.6
