; generated by PrusaSlicer 2.9.2 on 2025-08-24 at 13:55:56 UTC


;
;
; 

; external perimeters extrusion width = 0.45mm
; perimeters extrusion width = 0.45mm
; infill extrusion width = 0.45mm
; solid infill extrusion width = 0.45mm
; top infill extrusion width = 0.40mm
; first layer extrusion width = 0.42mm

M73 P0 R22
M73 Q0 S22
M201 X1000 Y1000 Z200 E5000 ; sets maximum accelerations, mm/sec^2
M203 X200 Y200 Z12 E120 ; sets maximum feedrates, mm / sec
M204 S1250 T1250 ; sets acceleration (S) and retract acceleration (R), mm/sec^2
M205 X8.00 Y8.00 Z0.40 E4.50 ; sets the jerk limits, mm/sec
M205 S0 T0 ; sets the minimum extruding and travel feed rate, mm/sec

; printing object fmBox_walls.stl id:0 copy 0
; stop printing object fmBox_walls.stl id:0 copy 0

;TYPE:Custom
M862.3 P "MK3S" ; printer model check
M862.1 P0.4 ; nozzle diameter check
M115 U3.13.3 ; tell printer latest fw version
G90 ; use absolute coordinates
M83 ; extruder relative mode
M104 S240 ; set extruder temp
M140 S85 ; set bed temp
M190 S85 ; wait for bed temp
M109 S240 ; wait for extruder temp
G28 W ; home all without mesh bed level
G80 X107.123 Y76.1229 W35.7542 H57.7542 ; mesh bed levelling

G1 Z0.2 F720
G1 Y-3 F1000 ; go outside print area
G92 E0
G1 X60 E9 F1000 ; intro line
G1 X100 E12.5 F1000 ; intro line

G92 E0
M221 S95

; Don't change E values below. Excessive value can damage the printer.
M907 E430 ; set extruder motor current
G21 ; set units to millimeters
G90 ; use absolute coordinates
M83 ; use relative distances for extrusion

M900 K0.08 ; Filament gcode LA 1.5
M900 K45 ; Filament gcode LA 1.0




M107
;LAYER_CHANGE
;Z:0.2
;HEIGHT:0.2
G1 E-1 F2100
G1 Z.4 F720
G1 X107.702 Y77.252 F10800
G1 Z.2 F720
G1 E1 F2100
M204 S800
;TYPE:Skirt/Brim
;WIDTH:0.42
G1 F600
G1 X108.735 Y76.449 E.04102
G1 X109.5 Y76.311 E.02437
G1 X140.5 Y76.311 E.97198
G1 X141.748 Y76.702 E.04101
M73 P0 R21
G1 X142.551 Y77.735 E.04102
G1 X142.689 Y78.5 E.02437
G1 X142.689 Y131.5 E1.66178
G1 X142.298 Y132.748 E.04101
M73 P1 R21
M73 Q1 S22
G1 X141.265 Y133.551 E.04102
G1 X140.5 Y133.689 E.02437
G1 X109.5 Y133.689 E.97198
G1 X108.252 Y133.298 E.04101
M73 Q1 S21
G1 X107.449 Y132.265 E.04102
G1 X107.311 Y131.5 E.02437
G1 X107.311 Y78.5 E1.66178
G1 X107.684 Y77.309 E.03913
M204 S1000
;WIPE_START
G1 F8640
G1 X107.702 Y77.252 E-.0138
G1 X108.735 Y76.449 E-.30211
G1 X109.5 Y76.311 E-.17949
G1 X111.685 Y76.311 E-.5046
;WIPE_END
G1 Z.4 F720
; printing object fmBox_walls.stl id:0 copy 0
G1 X139.198 Y130.101 F10800
G1 Z.2 F720
G1 E1 F2100
M204 S800
;TYPE:Perimeter
;WIDTH:0.577957
G1 F600
G1 X139.177 Y130.177 E.00351
G1 X139.025 Y130.218 E.007
;WIDTH:0.533432
G1 X138.873 Y130.259 E.00642
;WIDTH:0.488907
G1 X138.721 Y130.299 E.00583
;WIDTH:0.444381
G1 X111.279 Y130.299 E.91606
;WIDTH:0.488907
G1 X111.127 Y130.259 E.00583
M73 P2 R21
M73 Q2 S21
;WIDTH:0.533432
G1 X110.975 Y130.218 E.00642
;WIDTH:0.577957
G1 X110.823 Y130.177 E.007
G1 X110.782 Y130.025 E.007
;WIDTH:0.533432
G1 X110.741 Y129.873 E.00642
;WIDTH:0.488907
G1 X110.701 Y129.721 E.00583
;WIDTH:0.444382
G1 X110.701 Y80.279 E1.65046
;WIDTH:0.488907
G1 X110.741 Y80.127 E.00583
;WIDTH:0.533432
G1 X110.782 Y79.975 E.00642
;WIDTH:0.577957
G1 X110.823 Y79.823 E.007
G1 X110.975 Y79.782 E.007
;WIDTH:0.533432
G1 X111.127 Y79.741 E.00642
;WIDTH:0.488907
G1 X111.279 Y79.701 E.00583
;WIDTH:0.444381
G1 X138.721 Y79.701 E.91606
;WIDTH:0.488907
G1 X138.873 Y79.741 E.00583
;WIDTH:0.533432
G1 X139.025 Y79.782 E.00642
;WIDTH:0.577957
G1 X139.177 Y79.823 E.007
G1 X139.218 Y79.975 E.007
;WIDTH:0.533432
G1 X139.259 Y80.127 E.00642
;WIDTH:0.488907
G1 X139.299 Y80.279 E.00583
;WIDTH:0.444381
G1 X139.299 Y129.721 E1.65045
;WIDTH:0.488907
G1 X139.259 Y129.873 E.00583
M73 P3 R21
M73 Q3 S21
;WIDTH:0.533432
G1 X139.218 Y130.025 E.00642
;WIDTH:0.577957
G1 X139.213 Y130.043 E.00083
M204 S1000
G1 X138.868 Y129.822 F10800
M204 S800
;TYPE:External perimeter
;WIDTH:0.419999
G1 F600
G1 X138.855 Y129.855 E.00111
G1 X138.721 Y129.91 E.00454
G1 X111.279 Y129.91 E.86042
G1 X111.145 Y129.855 E.00454
G1 X111.09 Y129.721 E.00454
G1 X111.09 Y80.279 E1.55022
G1 X111.145 Y80.145 E.00454
G1 X111.279 Y80.09 E.00454
G1 X138.721 Y80.09 E.86042
G1 X138.855 Y80.145 E.00454
G1 X138.91 Y80.279 E.00454
G1 X138.91 Y129.721 E1.55022
G1 X138.891 Y129.767 E.00156
M73 P4 R21
M73 Q4 S21
M204 S1000
;WIPE_START
G1 F8640
G1 X138.868 Y129.822 E-.01377
G1 X138.855 Y129.855 E-.00819
G1 X138.721 Y129.91 E-.03345
G1 X134.63 Y129.91 E-.94459
;WIPE_END
G1 Z.4 F720
G1 X139.634 Y130.634 F10800
G1 Z.2 F720
G1 E1 F2100
M204 S800
;TYPE:Perimeter
;WIDTH:0.577957
G1 F600
G1 X139.151 Y130.656 E.02151
;WIDTH:0.533432
G1 X138.936 Y130.678 E.00881
;WIDTH:0.488907
G1 X138.721 Y130.701 E.00802
;WIDTH:0.444381
G1 X111.279 Y130.701 E.91606
;WIDTH:0.488907
G1 X110.974 Y130.678 E.01134
;WIDTH:0.533432
G1 X110.67 Y130.656 E.01243
;WIDTH:0.577957
G1 X110.366 Y130.634 E.01356
G1 X110.344 Y130.151 E.02151
;WIDTH:0.533432
G1 X110.322 Y129.936 E.00881
;WIDTH:0.488907
G1 X110.299 Y129.721 E.00802
;WIDTH:0.444382
G1 X110.299 Y80.279 E1.65046
;WIDTH:0.488907
G1 X110.322 Y79.974 E.01134
;WIDTH:0.533432
G1 X110.344 Y79.67 E.01243
;WIDTH:0.577957
G1 X110.366 Y79.366 E.01356
G1 X110.849 Y79.344 E.02151
;WIDTH:0.533432
G1 X111.064 Y79.322 E.00881
;WIDTH:0.488907
G1 X111.279 Y79.299 E.00802
;WIDTH:0.444381
G1 X138.721 Y79.299 E.91606
;WIDTH:0.488907
G1 X139.026 Y79.322 E.01134
M73 P5 R20
M73 Q5 S21
;WIDTH:0.533432
G1 X139.33 Y79.344 E.01243
;WIDTH:0.577957
G1 X139.634 Y79.366 E.01356
G1 X139.634 Y79.634 E.01192
G1 X139.656 Y79.849 E.00961
;WIDTH:0.533432
G1 X139.678 Y80.064 E.00881
;WIDTH:0.488907
G1 X139.701 Y80.279 E.00802
;WIDTH:0.444381
G1 X139.701 Y129.721 E1.65045
;WIDTH:0.450279
G1 X139.698 Y129.857 E.00461
;WIDTH:0.492839
G1 X139.677 Y130.116 E.00972
;WIDTH:0.535398
G1 X139.655 Y130.375 E.01064
;WIDTH:0.577957
G1 X139.639 Y130.574 E.00888
M204 S1000
G1 X140.09 Y131.09 F10800
M204 S800
;TYPE:External perimeter
;WIDTH:0.419999
G1 F600
G1 X109.91 Y131.09 E.94627
G1 X109.91 Y78.91 E1.63606
G1 X140.09 Y78.91 E.94627
M73 P6 R20
M73 Q6 S20
G1 X140.09 Y79.634 E.0227
G1 X140.09 Y131.03 E1.61148
M204 S1000
;LAYER_CHANGE
;Z:0.4
;HEIGHT:0.2
;BEFORE_LAYER_CHANGE
G92 E0.0
;0.4


;WIPE_START
G1 F8640
G1 X140.09 Y131.09 E-.01385
G1 X135.819 Y131.09 E-.98615
;WIPE_END
G1 Z.4 F720
;AFTER_LAYER_CHANGE
;0.4
M104 S250 ; set temperature
M140 S90 ; set bed temperature
; stop printing object fmBox_walls.stl id:0 copy 0
G1 Z.6
G1 X142.689 Y131.03 F10800
G1 Z.4 F720
G1 E1 F2100
;TYPE:Skirt/Brim
;WIDTH:0.42
G1 F3000
G1 X142.689 Y131.5 E.01474
G1 X142.298 Y132.748 E.04101
G1 X141.265 Y133.551 E.04102
G1 X140.5 Y133.689 E.02437
G1 X109.5 Y133.689 E.97198
G1 X108.252 Y133.298 E.04101
G1 X107.449 Y132.265 E.04102
G1 X107.311 Y131.5 E.02437
G1 X107.311 Y78.5 E1.66178
G1 X107.702 Y77.252 E.04101
G1 X108.735 Y76.449 E.04102
G1 X109.5 Y76.311 E.02437
G1 X140.5 Y76.311 E.97198
G1 X141.748 Y76.702 E.04101
M73 P7 R20
M73 Q7 S20
G1 X142.551 Y77.735 E.04102
G1 X142.689 Y78.5 E.02437
G1 X142.689 Y130.97 E1.64516
;WIPE_START
G1 F8640
G1 X142.689 Y131.03 E-.01385
G1 X142.689 Y131.5 E-.10852
G1 X142.298 Y132.748 E-.30198
G1 X141.265 Y133.551 E-.30211
G1 X140.5 Y133.689 E-.17949
G1 X140.093 Y133.689 E-.09405
;WIPE_END
G1 Z.6 F720
; printing object fmBox_walls.stl id:0 copy 0
G1 X138.953 Y129.953 F10800
G1 Z.4 F720
G1 E1 F2100
M204 S800
;TYPE:Perimeter
;WIDTH:0.492948
G1 F2490.336
G1 X138.875 Y130.017 E.00378
;WIDTH:0.535897
G1 F2471.273
G1 X138.798 Y130.08 E.00408
;WIDTH:0.578846
G1 F2454.385
G1 X138.72 Y130.144 E.0045
;WIDTH:0.621795
G1 F2439.348
G1 X138.642 Y130.208 E.00486
G1 F2435.754
G1 X138.521 Y130.214 E.00583
;WIDTH:0.614381
G1 F2436.718
G1 X111.479 Y130.214 E1.28496
G1 F2491.151
G1 X111.371 Y130.149 E.00599
;WIDTH:0.573286
G1 F2497.563
G1 X111.263 Y130.084 E.00556
;WIDTH:0.53219
G1 F2499.456
G1 X111.155 Y130.018 E.00515
;WIDTH:0.491095
G1 F2500.206
G1 X111.047 Y129.953 E.0047
;WIDTH:0.492949
G1 F2489.833
G1 X110.983 Y129.875 E.00378
;WIDTH:0.535898
G1 F2470.724
G1 X110.92 Y129.798 E.00408
;WIDTH:0.578847
G1 F2453.795
G1 X110.856 Y129.72 E.0045
;WIDTH:0.621796
G1 F2438.721
G1 X110.792 Y129.642 E.00486
G1 F2435.119
G1 X110.786 Y129.521 E.00583
;WIDTH:0.614382
G1 F2700
G1 X110.786 Y80.479 E2.33034
G1 F2489.891
G1 X110.851 Y80.371 E.00599
;WIDTH:0.573287
G1 F2497.562
G1 X110.916 Y80.263 E.00556
;WIDTH:0.532191
G1 F2499.475
G1 X110.982 Y80.155 E.00515
;WIDTH:0.491095
G1 F2500.225
G1 X111.047 Y80.047 E.0047
;WIDTH:0.492948
G1 F2489.853
G1 X111.125 Y79.983 E.00378
;WIDTH:0.535897
G1 F2470.746
G1 X111.202 Y79.92 E.00408
;WIDTH:0.578846
G1 F2453.819
G1 X111.28 Y79.856 E.0045
;WIDTH:0.621795
G1 F2438.747
G1 X111.358 Y79.793 E.00483
G1 F2435.145
G1 X111.479 Y79.786 E.00583
;WIDTH:0.614381
G1 F2436.112
G1 X138.521 Y79.786 E1.28496
G1 F2485.508
G1 X138.629 Y79.851 E.00599
;WIDTH:0.573286
G1 F2486.965
G1 X138.737 Y79.916 E.00556
;WIDTH:0.53219
G1 F2489.074
G1 X138.845 Y79.982 E.00515
;WIDTH:0.491095
G1 F2492.084
G1 X138.953 Y80.047 E.0047
G1 F2485.027
G1 X139.018 Y80.155 E.0047
;WIDTH:0.53219
G1 F2469.607
G1 X139.084 Y80.263 E.00515
;WIDTH:0.573286
G1 F2457.262
G1 X139.149 Y80.371 E.00556
;WIDTH:0.614381
G1 F2447.561
G1 X139.214 Y80.479 E.00599
G1 F2700
G1 X139.214 Y129.521 E2.33034
;WIDTH:0.621795
G1 F2483.922
G1 X139.208 Y129.642 E.00583
G1 F2478.395
G1 X139.144 Y129.72 E.00486
;WIDTH:0.578846
G1 F2489.135
G1 X139.08 Y129.798 E.0045
;WIDTH:0.535897
G1 F2494.153
G1 X139.017 Y129.875 E.00408
;WIDTH:0.492948
G1 F2498.404
G1 X138.991 Y129.907 E.00154
M204 S1000
G1 X138.668 Y129.659 F10800
M204 S800
;TYPE:External perimeter
;WIDTH:0.449999
G1 F1500
G1 X138.665 Y129.665 E.00023
G1 X138.521 Y129.725 E.00528
G1 X112.153 Y129.725 E.89252
G1 X111.479 Y129.725 E.02281
G1 X111.335 Y129.665 E.00528
G1 X111.275 Y129.521 E.00528
G1 X111.275 Y128.847 E.02281
G1 X111.275 Y81.153 E1.61438
G1 X111.275 Y80.479 E.02281
G1 X111.335 Y80.335 E.00528
G1 X111.479 Y80.275 E.00528
G1 X137.847 Y80.275 E.89252
G1 X138.521 Y80.275 E.02281
G1 X138.665 Y80.335 E.00528
G1 X138.725 Y80.479 E.00528
G1 X138.725 Y81.153 E.02281
G1 X138.725 Y128.847 E1.61438
G1 X138.725 Y129.521 E.02281
G1 X138.691 Y129.604 E.00304
M204 S1000
;WIPE_START
G1 F8640
G1 X138.668 Y129.659 E-.01377
G1 X138.665 Y129.665 E-.00155
G1 X138.521 Y129.725 E-.03602
G1 X134.412 Y129.725 E-.94866
;WIPE_END
G1 Z.6 F720
G1 X139.868 Y130.868 F10800
G1 Z.4 F720
G1 E1 F2100
M204 S800
;TYPE:Perimeter
G1 F2369.093
G1 X139.332 Y130.868 E.01814
;WIDTH:0.491095
G1 F2377.967
G1 X139.129 Y130.847 E.00761
;WIDTH:0.53219
G1 F2376.063
G1 X138.927 Y130.827 E.00826
;WIDTH:0.573286
G1 F2374.427
G1 X138.724 Y130.806 E.009
;WIDTH:0.614381
G1 F2373.007
G1 X138.521 Y130.786 E.00969
G1 F2374.192
G1 X111.479 Y130.786 E1.28496
G1 F2461.82
G1 X111.276 Y130.806 E.00969
;WIDTH:0.573286
G1 F2450.873
G1 X111.073 Y130.827 E.009
;WIDTH:0.53219
G1 F2438.217
G1 X110.871 Y130.847 E.00826
;WIDTH:0.491095
G1 F2423.578
G1 X110.668 Y130.868 E.00761
;WIDTH:0.449999
G1 F2387.456
G1 X110.132 Y130.868 E.01814
G1 F2369.091
G1 X110.132 Y130.332 E.01814
;WIDTH:0.491095
G1 F2377.194
M73 P8 R20
G1 X110.153 Y130.129 E.00761
;WIDTH:0.532191
G1 F2375.285
G1 X110.173 Y129.927 E.00826
;WIDTH:0.573287
G1 F2373.646
G1 X110.194 Y129.724 E.009
;WIDTH:0.614382
G1 F2372.222
G1 X110.214 Y129.521 E.00969
G1 F2700
G1 X110.214 Y80.479 E2.33034
G1 F2456.115
M73 Q8 S20
G1 X110.194 Y80.276 E.00969
;WIDTH:0.573287
G1 F2444.906
G1 X110.173 Y80.073 E.009
;WIDTH:0.532191
G1 F2431.948
G1 X110.153 Y79.871 E.00826
;WIDTH:0.491095
G1 F2416.958
G1 X110.132 Y79.668 E.00761
;WIDTH:0.449999
G1 F2380.13
G1 X110.132 Y79.132 E.01814
G1 F2369.089
G1 X110.668 Y79.132 E.01814
;WIDTH:0.491095
G1 F2377.226
G1 X110.871 Y79.153 E.00761
;WIDTH:0.53219
G1 F2375.317
G1 X111.073 Y79.173 E.00826
;WIDTH:0.573286
G1 F2373.677
G1 X111.276 Y79.194 E.009
;WIDTH:0.614381
G1 F2372.254
G1 X111.479 Y79.214 E.00969
G1 F2373.441
G1 X138.521 Y79.214 E1.28496
G1 F2461.822
G1 X138.724 Y79.194 E.00969
;WIDTH:0.573286
G1 F2450.876
G1 X138.927 Y79.173 E.009
;WIDTH:0.53219
G1 F2438.221
G1 X139.129 Y79.153 E.00826
;WIDTH:0.491095
G1 F2423.582
G1 X139.332 Y79.132 E.00761
;WIDTH:0.449999
G1 F2387.615
G1 X139.868 Y79.132 E.01814
G1 F2359.878
G1 X139.868 Y79.668 E.01814
;WIDTH:0.491095
G1 F2357.624
G1 X139.847 Y79.871 E.00761
;WIDTH:0.53219
G1 F2367.097
G1 X139.827 Y80.073 E.00826
;WIDTH:0.573286
G1 F2381.022
G1 X139.806 Y80.276 E.009
;WIDTH:0.614381
G1 F2395.432
G1 X139.786 Y80.479 E.00969
G1 F2700
G1 X139.786 Y129.521 E2.33034
;WIDTH:0.621795
G1 F2454.331
G1 X139.782 Y129.692 E.00823
G1 F2437.625
G1 X139.803 Y129.852 E.00777
;WIDTH:0.578846
G1 F2430.145
G1 X139.825 Y130.012 E.0072
;WIDTH:0.535897
G1 F2421.54
G1 X139.846 Y130.172 E.00661
;WIDTH:0.492948
G1 F2411.612
G1 X139.868 Y130.332 E.00604
;WIDTH:0.449999
G1 F2377.587
G1 X139.868 Y130.808 E.01611
M204 S1000
G1 X140.275 Y131.275 F10800
M204 S800
;TYPE:External perimeter
G1 F1500
G1 X139.6 Y131.275 E.02285
G1 X110.4 Y131.275 E.98838
G1 X109.725 Y131.275 E.02285
G1 X109.725 Y130.6 E.02285
G1 X109.725 Y79.4 E1.73306
G1 X109.725 Y78.725 E.02285
G1 X110.4 Y78.725 E.02285
G1 X139.6 Y78.725 E.98838
G1 X140.275 Y78.725 E.02285
G1 X140.275 Y79.4 E.02285
G1 X140.275 Y130.6 E1.73306
G1 X140.275 Y131.215 E.02082
M204 S1000
;WIPE_START
G1 F8640
G1 X140.275 Y131.275 E-.01385
G1 X139.6 Y131.275 E-.15586
G1 X136.004 Y131.275 E-.83029
;WIPE_END
G1 Z.6 F720
G1 X139.419 Y129.968 F10800
G1 Z.4 F720
G1 E1 F2100
;TYPE:Solid infill
;WIDTH:0.410675
G1 F4800
G1 X139.501 Y130.276 E.00975
G1 X139.521 Y130.521 E.00752
G1 X139.371 Y130.521 E.00459
G1 X138.968 Y130.419 E.01271
G1 X139.275 Y130.112 E.01328
;WIPE_START
G1 F8640
G1 X138.968 Y130.419 E-.10025
G1 X139.371 Y130.521 E-.09599
G1 X139.521 Y130.521 E-.03464
G1 X139.501 Y130.276 E-.05676
G1 X139.419 Y129.968 E-.0736
;WIPE_END
G1 E-.63876 F2100
G1 Z.6 F720
G1 X110.58 Y129.971 F10800
G1 Z.4 F720
G1 E1 F2100
;WIDTH:0.410085
G1 F4800
G1 X110.798 Y130.194 E.00952
G1 X111.124 Y130.426 E.01222
G1 X110.765 Y130.499 E.01118
G1 X110.478 Y130.522 E.00879
G1 X110.478 Y130.371 E.00461
G1 X110.53 Y130.168 E.0064
;WIPE_START
G1 F8640
G1 X110.478 Y130.371 E-.04839
G1 X110.478 Y130.522 E-.03487
G1 X110.765 Y130.499 E-.06648
G1 X111.124 Y130.426 E-.08459
G1 X110.798 Y130.194 E-.09239
G1 X110.58 Y129.971 E-.07201
;WIPE_END
G1 E-.60127 F2100
G1 Z.6 F720
G1 X110.629 Y79.478 F10800
G1 Z.4 F720
G1 E1 F2100
;WIDTH:0.410084
G1 F4800
G1 X111.029 Y79.58 E.0126
G1 X110.806 Y79.798 E.00952
G1 X110.574 Y80.124 E.01222
G1 X110.501 Y79.765 E.01118
G1 X110.483 Y79.531 E.00717
;WIPE_START
G1 F8640
G1 X110.501 Y79.765 E-.05419
G1 X110.574 Y80.124 E-.08459
G1 X110.806 Y79.798 E-.09239
G1 X111.029 Y79.58 E-.07201
G1 X110.629 Y79.478 E-.09532
;WIPE_END
G1 E-.6015 F2100
G1 Z.6 F720
G1 X139.232 Y79.503 F10800
G1 Z.4 F720
G1 E1 F2100
;WIDTH:0.411866
G1 F4800
G1 X139.521 Y79.479 E.0089
G1 X139.521 Y79.638 E.00488
G1 X139.426 Y80.122 E.01513
G1 X139.219 Y79.826 E.01108
G1 X138.878 Y79.574 E.01301
G1 X139.032 Y79.543 E.00482
;LAYER_CHANGE
;Z:0.6
;HEIGHT:0.2
;BEFORE_LAYER_CHANGE
G92 E0.0
;0.6


;WIPE_START
G1 F8640
G1 X138.878 Y79.574 E-.03627
G1 X139.219 Y79.826 E-.09791
G1 X139.426 Y80.122 E-.0834
G1 X139.521 Y79.638 E-.11389
G1 X139.521 Y79.479 E-.03671
G1 X139.232 Y79.503 E-.06696
;WIPE_END
G1 E-.56486 F2100
G1 Z.6 F720
;AFTER_LAYER_CHANGE
;0.6
; stop printing object fmBox_walls.stl id:0 copy 0
G1 Z.8
G1 X139.032 Y76.311 F10800
G1 Z.6 F720
G1 E1 F2100
;TYPE:Skirt/Brim
;WIDTH:0.42
G1 F3000
G1 X140.5 Y76.311 E.04603
G1 X141.748 Y76.702 E.04101
G1 X142.551 Y77.735 E.04102
G1 X142.689 Y78.5 E.02437
G1 X142.689 Y131.5 E1.66178
G1 X142.298 Y132.748 E.04101
M73 P9 R20
M73 Q9 S20
G1 X141.265 Y133.551 E.04102
G1 X140.5 Y133.689 E.02437
G1 X109.5 Y133.689 E.97198
G1 X108.252 Y133.298 E.04101
G1 X107.449 Y132.265 E.04102
G1 X107.311 Y131.5 E.02437
G1 X107.311 Y78.5 E1.66178
G1 X107.702 Y77.252 E.04101
G1 X108.735 Y76.449 E.04102
G1 X109.5 Y76.311 E.02437
G1 X138.972 Y76.311 E.92407
;WIPE_START
G1 F8640
G1 X139.032 Y76.311 E-.01385
G1 X140.5 Y76.311 E-.33897
G1 X141.748 Y76.702 E-.30198
