; generated by PrusaSlicer 2.9.2 on 2025-08-24 at 13:48:30 UTC


;
;
; 

; external perimeters extrusion width = 0.45mm
; perimeters extrusion width = 0.45mm
; infill extrusion width = 0.45mm
; solid infill extrusion width = 0.45mm
; top infill extrusion width = 0.40mm
; first layer extrusion width = 0.42mm

M73 P0 R14
M73 Q0 S14
M201 X1000 Y1000 Z200 E5000 ; sets maximum accelerations, mm/sec^2
M203 X200 Y200 Z12 E120 ; sets maximum feedrates, mm / sec
M204 S1250 T1250 ; sets acceleration (S) and retract acceleration (R), mm/sec^2
M205 X8.00 Y8.00 Z0.40 E4.50 ; sets the jerk limits, mm/sec
M205 S0 T0 ; sets the minimum extruding and travel feed rate, mm/sec

; printing object fmBox_walls.stl id:0 copy 0
; stop printing object fmBox_walls.stl id:0 copy 0

;TYPE:Custom
M862.3 P "MK3S" ; printer model check
M862.1 P0.4 ; nozzle diameter check
M115 U3.13.3 ; tell printer latest fw version
G90 ; use absolute coordinates
M83 ; extruder relative mode
M104 S240 ; set extruder temp
M140 S85 ; set bed temp
M190 S85 ; wait for bed temp
M109 S240 ; wait for extruder temp
G28 W ; home all without mesh bed level
G80 X107.123 Y76.1229 W35.7542 H57.7542 ; mesh bed levelling

G1 Z0.2 F720
G1 Y-3 F1000 ; go outside print area
G92 E0
G1 X60 E9 F1000 ; intro line
G1 X100 E12.5 F1000 ; intro line

G92 E0
M221 S95

; Don't change E values below. Excessive value can damage the printer.
M907 E430 ; set extruder motor current
G21 ; set units to millimeters
G90 ; use absolute coordinates
M83 ; use relative distances for extrusion

M900 K0.08 ; Filament gcode LA 1.5
M900 K45 ; Filament gcode LA 1.0




M107
;LAYER_CHANGE
;Z:0.2
;HEIGHT:0.2
G1 E-1 F2100
G1 Z.4 F720
G1 X107.702 Y77.252 F10800
G1 Z.2 F720
G1 E1 F2100
M204 S800
;TYPE:Skirt/Brim
;WIDTH:0.42
G1 F600
G1 X108.735 Y76.449 E.04102
G1 X109.5 Y76.311 E.02437
G1 X140.5 Y76.311 E.97198
G1 X141.748 Y76.702 E.04101
M73 P1 R14
M73 Q1 S14
G1 X142.551 Y77.735 E.04102
G1 X142.689 Y78.5 E.02437
G1 X142.689 Y131.5 E1.66178
G1 X142.298 Y132.748 E.04101
M73 P1 R13
G1 X141.265 Y133.551 E.04102
G1 X140.5 Y133.689 E.02437
G1 X109.5 Y133.689 E.97198
G1 X108.252 Y133.298 E.04101
M73 P2 R13
M73 Q2 S14
G1 X107.449 Y132.265 E.04102
G1 X107.311 Y131.5 E.02437
G1 X107.311 Y78.5 E1.66178
G1 X107.684 Y77.309 E.03913
M73 Q2 S13
M204 S1000
;WIPE_START
G1 F8640
G1 X107.702 Y77.252 E-.0138
G1 X108.735 Y76.449 E-.30211
G1 X109.5 Y76.311 E-.17949
G1 X111.685 Y76.311 E-.5046
;WIPE_END
G1 Z.4 F720
; printing object fmBox_walls.stl id:0 copy 0
G1 X138.49 Y102.527 F10800
G1 Z.2 F720
M73 P3 R13
M73 Q3 S13
G1 E1 F2100
M204 S800
;TYPE:Perimeter
;WIDTH:0.419999
G1 F600
G1 X138.879 Y103.082 E.02125
G1 X139.1 Y103.536 E.01583
;WIDTH:0.423449
G1 X139.308 Y104.219 E.02259
G1 X139.373 Y104.948 E.02316
;WIDTH:0.425412
G1 X139.329 Y105.676 E.0232
G1 X139.207 Y106.167 E.01609
;WIDTH:0.419999
G1 X138.93 Y106.825 E.02238
G1 X138.665 Y107.255 E.01584
G1 X138.198 Y107.795 E.02238
G1 X137.626 Y108.252 E.02296
G1 X136.98 Y108.592 E.02289
G1 X136.28 Y108.806 E.02295
G1 X135.553 Y108.885 E.02293
G1 X134.824 Y108.826 E.02293
G1 X134.119 Y108.632 E.02293
G1 X133.463 Y108.308 E.02294
G1 X132.859 Y107.848 E.0238
G1 X132.259 Y107.139 E.02912
G1 X131.908 Y106.48 E.02341
G1 X131.694 Y105.78 E.02295
G1 X131.615 Y105.053 E.02293
G1 X131.674 Y104.324 E.02293
G1 X131.868 Y103.619 E.02293
G1 X132.192 Y102.963 E.02294
G1 X132.632 Y102.38 E.0229
G1 X133.26 Y101.826 E.02626
G1 X133.797 Y101.508 E.01957
G1 X134.482 Y101.251 E.02294
G1 X135.401 Y101.118 E.02911
G1 X136.173 Y101.174 E.02427
G1 X136.88 Y101.368 E.02299
G1 X137.537 Y101.692 E.02297
G1 X137.949 Y101.983 E.01582
G1 X138.455 Y102.478 E.02219
M204 S1000
G1 X138.203 Y102.764 F10800
M204 S800
;TYPE:External perimeter
G1 F600
G1 X138.567 Y103.294 E.02016
G1 X138.769 Y103.724 E.0149
G1 X138.944 Y104.325 E.01963
G1 X139.009 Y104.982 E.0207
G1 X138.95 Y105.64 E.02071
G1 X138.832 Y106.101 E.01492
G1 X138.584 Y106.675 E.01961
G1 X138.329 Y107.077 E.01493
G1 X137.915 Y107.546 E.01961
G1 X137.395 Y107.954 E.02072
G1 X136.809 Y108.256 E.02067
G1 X136.175 Y108.444 E.02073
G1 X135.517 Y108.509 E.02073
G1 X134.86 Y108.45 E.02068
G1 X134.225 Y108.269 E.0207
G1 X133.634 Y107.972 E.02074
G1 X133.091 Y107.551 E.02154
G1 X132.55 Y106.9 E.02654
G1 X132.244 Y106.308 E.02089
G1 X132.056 Y105.675 E.0207
G1 X131.991 Y105.018 E.0207
G1 X132.05 Y104.36 E.02071
G1 X132.231 Y103.725 E.0207
G1 X132.528 Y103.135 E.02071
G1 X132.93 Y102.611 E.02071
G1 X133.452 Y102.151 E.02182
G1 X133.989 Y101.832 E.01958
G1 X134.61 Y101.605 E.02073
G1 X135.45 Y101.492 E.02657
G1 X136.139 Y101.549 E.02168
G1 X136.775 Y101.73 E.02073
G1 X137.365 Y102.027 E.02071
G1 X137.75 Y102.307 E.01493
G1 X138.163 Y102.72 E.01831
M204 S1000
;WIPE_START
G1 F8640
G1 X138.203 Y102.764 E-.01373
G1 X138.567 Y103.294 E-.14846
G1 X138.769 Y103.724 E-.1097
G1 X138.944 Y104.325 E-.14454
G1 X139.009 Y104.982 E-.15244
G1 X138.95 Y105.64 E-.15254
G1 X138.832 Y106.101 E-.10988
G1 X138.584 Y106.675 E-.14438
G1 X138.528 Y106.764 E-.02433
;WIPE_END
G1 Z.4 F720
G1 X137.777 Y92.116 F10800
G1 Z.2 F720
G1 E1 F2100
M204 S800
;TYPE:Perimeter
G1 F600
G1 X138.121 Y92.382 E.01363
G1 X138.628 Y92.947 E.0238
G1 X139.085 Y93.756 E.02913
;WIDTH:0.423449
G1 X139.308 Y94.469 E.02364
G1 X139.373 Y95.198 E.02316
;WIDTH:0.425413
G1 X139.329 Y95.926 E.0232
G1 X139.207 Y96.417 E.01609
;WIDTH:0.419999
G1 X138.93 Y97.075 E.02238
G1 X138.665 Y97.505 E.01584
G1 X138.198 Y98.046 E.02241
G1 X137.626 Y98.502 E.02294
G1 X136.979 Y98.842 E.02292
G1 X136.28 Y99.056 E.02292
G1 X135.553 Y99.135 E.02293
G1 X134.824 Y99.076 E.02293
G1 X134.119 Y98.882 E.02293
G1 X133.664 Y98.675 E.01567
G1 X133.174 Y98.361 E.01825
G1 X132.704 Y97.948 E.01962
G1 X132.249 Y97.376 E.02292
G1 X131.908 Y96.73 E.0229
G1 X131.694 Y96.03 E.02295
G1 X131.615 Y95.303 E.02293
G1 X131.674 Y94.574 E.02293
G1 X131.868 Y93.87 E.0229
G1 X132.191 Y93.214 E.02293
G1 X132.632 Y92.63 E.02295
G1 X133.174 Y92.139 E.02293
G1 X133.797 Y91.758 E.0229
G1 X134.442 Y91.515 E.02161
G1 X135.401 Y91.368 E.03042
G1 X136.172 Y91.424 E.02424
G1 X136.881 Y91.618 E.02305
G1 X137.627 Y91.999 E.02626
G1 X137.73 Y92.079 E.00409
M204 S1000
G1 X137.554 Y92.423 F10800
M204 S800
;TYPE:External perimeter
G1 F600
G1 X137.89 Y92.68 E.01326
G1 X138.344 Y93.195 E.02153
G1 X138.754 Y93.937 E.02658
G1 X138.944 Y94.575 E.02087
G1 X139.009 Y95.232 E.0207
G1 X138.95 Y95.89 E.02071
G1 X138.832 Y96.351 E.01492
G1 X138.584 Y96.925 E.01961
G1 X138.329 Y97.327 E.01493
G1 X137.915 Y97.796 E.01961
G1 X137.395 Y98.204 E.02072
M73 Q4 S13
G1 X136.808 Y98.506 E.0207
M73 P4 R13
G1 X136.175 Y98.694 E.0207
G1 X135.518 Y98.759 E.0207
G1 X134.86 Y98.7 E.02071
G1 X134.225 Y98.519 E.0207
G1 X133.755 Y98.292 E.01637
G1 X133.423 Y98.079 E.01237
G1 X132.954 Y97.665 E.01961
G1 X132.546 Y97.145 E.02072
G1 X132.244 Y96.558 E.0207
G1 X132.056 Y95.925 E.0207
G1 X131.991 Y95.268 E.0207
G1 X132.05 Y94.61 E.02071
G1 X132.23 Y93.975 E.02069
G1 X132.527 Y93.385 E.02071
G1 X132.93 Y92.861 E.02073
G1 X133.423 Y92.421 E.02072
G1 X133.989 Y92.082 E.02069
G1 X134.57 Y91.87 E.01939
G1 X135.45 Y91.742 E.02788
G1 X136.139 Y91.799 E.02168
G1 X136.775 Y91.981 E.02074
G1 X137.366 Y92.278 E.02074
G1 X137.507 Y92.386 E.00557
M204 S1000
;WIPE_START
G1 F8640
G1 X137.554 Y92.423 E-.01381
G1 X137.89 Y92.68 E-.09768
G1 X138.344 Y93.195 E-.15852
G1 X138.754 Y93.937 E-.19575
G1 X138.944 Y94.575 E-.15371
G1 X139.009 Y95.232 E-.15244
G1 X138.95 Y95.89 E-.15254
G1 X138.869 Y96.207 E-.07555
;WIPE_END
G1 Z.4 F720
G1 X139.004 Y83.851 F10800
G1 Z.2 F720
G1 E1 F2100
M204 S800
;TYPE:Perimeter
G1 F600
G1 X139.092 Y84.02 E.00597
;WIDTH:0.42345
G1 X139.308 Y84.719 E.02315
G1 X139.373 Y85.448 E.02316
;WIDTH:0.425412
G1 X139.329 Y86.176 E.0232
G1 X139.207 Y86.667 E.01609
;WIDTH:0.419999
G1 X138.93 Y87.324 E.02236
G1 X138.527 Y87.935 E.02295
G1 X138.018 Y88.459 E.0229
G1 X137.418 Y88.879 E.02296
G1 X136.964 Y89.1 E.01583
G1 X136.28 Y89.306 E.0224
G1 X135.553 Y89.385 E.02293
G1 X134.824 Y89.326 E.02293
G1 X134.333 Y89.207 E.01584
G1 X133.675 Y88.93 E.02238
G1 X133.245 Y88.665 E.01584
G1 X132.704 Y88.198 E.02241
G1 X132.192 Y87.537 E.02622
G1 X131.908 Y86.98 E.0196
G1 X131.694 Y86.28 E.02295
G1 X131.615 Y85.446 E.02627
G1 X131.674 Y84.824 E.01959
G1 X131.868 Y84.12 E.0229
G1 X132.191 Y83.464 E.02293
G1 X132.632 Y82.88 E.02295
G1 X133.174 Y82.389 E.02293
G1 X133.797 Y82.008 E.0229
G1 X134.482 Y81.751 E.02294
G1 X135.401 Y81.618 E.02911
G1 X136.172 Y81.674 E.02424
G1 X136.88 Y81.868 E.02302
G1 X137.496 Y82.171 E.02152
G1 X137.949 Y82.483 E.01725
G1 X138.459 Y82.983 E.02239
G1 X138.762 Y83.388 E.01586
G1 X138.976 Y83.798 E.0145
M204 S1000
G1 X138.664 Y84.011 F10800
M204 S800
;TYPE:External perimeter
G1 F600
G1 X138.756 Y84.192 E.00637
G1 X138.944 Y84.825 E.0207
G1 X139.009 Y85.482 E.0207
G1 X138.95 Y86.14 E.02071
G1 X138.832 Y86.601 E.01492
G1 X138.584 Y87.175 E.01961
G1 X138.215 Y87.723 E.02071
G1 X137.751 Y88.192 E.02069
G1 X137.206 Y88.567 E.02074
G1 X136.775 Y88.769 E.01492
G1 X136.175 Y88.944 E.0196
G1 X135.518 Y89.009 E.0207
G1 X134.86 Y88.95 E.02071
G1 X134.399 Y88.832 E.01492
G1 X133.825 Y88.584 E.01961
G1 X133.423 Y88.329 E.01493
G1 X132.954 Y87.915 E.01961
G1 X132.546 Y87.395 E.02072
G1 X132.244 Y86.808 E.0207
G1 X132.056 Y86.175 E.0207
G1 X131.991 Y85.482 E.02182
G1 X132.05 Y84.86 E.01959
G1 X132.231 Y84.225 E.0207
G1 X132.527 Y83.635 E.0207
G1 X132.93 Y83.111 E.02073
G1 X133.423 Y82.671 E.02072
G1 X133.989 Y82.332 E.02069
G1 X134.61 Y82.105 E.02073
G1 X135.45 Y81.992 E.02657
G1 X136.139 Y82.049 E.02168
G1 X136.775 Y82.23 E.02073
G1 X137.325 Y82.507 E.01931
G1 X137.75 Y82.807 E.01631
G1 X138.193 Y83.249 E.01962
G1 X138.473 Y83.635 E.01495
G1 X138.637 Y83.958 E.01136
M204 S1000
;WIPE_START
G1 F8640
G1 X138.664 Y84.011 E-.01373
G1 X138.756 Y84.192 E-.04688
G1 X138.944 Y84.825 E-.15247
G1 X139.009 Y85.482 E-.15244
G1 X138.95 Y86.14 E-.15254
G1 X138.832 Y86.601 E-.10988
G1 X138.584 Y87.175 E-.14438
G1 X138.215 Y87.723 E-.15255
G1 X137.986 Y87.955 E-.07513
;WIPE_END
G1 Z.4 F720
G1 X130.608 Y117.608 F10800
G1 Z.2 F720
G1 E1 F2100
M204 S800
;TYPE:Perimeter
G1 F600
G1 X130.508 Y117.709 E.00446
G1 X130.221 Y117.787 E.00933
G1 X115.779 Y117.787 E.45282
G1 X115.531 Y117.73 E.00798
M73 P5 R13
M73 Q5 S13
G1 X115.352 Y117.593 E.00707
G1 X115.221 Y117.319 E.00952
G1 X115.213 Y117.221 E.00308
G1 X115.213 Y92.779 E.76636
G1 X115.279 Y92.512 E.00862
G1 X115.439 Y92.326 E.00769
G1 X115.703 Y92.218 E.00894
G1 X130.221 Y92.213 E.4552
G1 X130.508 Y92.291 E.00933
G1 X130.712 Y92.497 E.00909
G1 X130.787 Y92.779 E.00915
G1 X130.787 Y117.221 E.76636
G1 X130.712 Y117.503 E.00915
G1 X130.651 Y117.565 E.00273
M204 S1000
G1 X130.324 Y117.363 F10800
M204 S800
;TYPE:External perimeter
G1 F600
G1 X130.221 Y117.41 E.00355
G1 X115.779 Y117.41 E.45282
G1 X115.636 Y117.345 E.00493
G1 X115.59 Y117.221 E.00415
G1 X115.59 Y92.779 E.76636
G1 X115.636 Y92.655 E.00415
M73 P6 R13
M73 Q6 S13
G1 X115.779 Y92.59 E.00493
G1 X130.221 Y92.59 E.45282
G1 X130.364 Y92.656 E.00494
G1 X130.41 Y92.779 E.00412
G1 X130.41 Y117.221 E.76636
G1 X130.37 Y117.33 E.00364
M204 S1000
;WIPE_START
G1 F8640
G1 X130.324 Y117.363 E-.01307
G1 X130.221 Y117.41 E-.02614
G1 X126.06 Y117.41 E-.96079
;WIPE_END
G1 Z.4 F720
G1 X131.639 Y114.507 F10800
G1 Z.2 F720
G1 E1 F2100
M204 S800
;TYPE:Perimeter
G1 F600
G1 X131.674 Y114.074 E.01362
G1 X131.868 Y113.369 E.02293
G1 X132.192 Y112.713 E.02294
G1 X132.632 Y112.13 E.0229
G1 X133.174 Y111.639 E.02293
G1 X133.797 Y111.258 E.0229
G1 X134.482 Y111.001 E.02294
G1 X135.401 Y110.868 E.02911
G1 X136.172 Y110.924 E.02424
G1 X136.88 Y111.118 E.02302
G1 X137.537 Y111.442 E.02297
G1 X138.121 Y111.882 E.02293
G1 X138.628 Y112.447 E.0238
G1 X139.085 Y113.256 E.02913
;WIDTH:0.423449
G1 X139.308 Y113.969 E.02364
G1 X139.373 Y114.698 E.02316
;WIDTH:0.425413
G1 X139.329 Y115.426 E.0232
G1 X139.207 Y115.917 E.01609
;WIDTH:0.419999
G1 X138.93 Y116.575 E.02238
G1 X138.665 Y117.005 E.01584
G1 X138.198 Y117.545 E.02238
G1 X137.627 Y118.001 E.02291
G1 X136.98 Y118.342 E.02293
G1 X136.28 Y118.556 E.02295
G1 X135.553 Y118.635 E.02293
G1 X134.824 Y118.576 E.02293
G1 X134.333 Y118.457 E.01584
M73 P7 R13
G1 X133.675 Y118.18 E.02238
M73 Q7 S13
G1 X133.245 Y117.915 E.01584
G1 X132.704 Y117.448 E.02241
G1 X132.249 Y116.876 E.02292
G1 X131.908 Y116.23 E.0229
G1 X131.694 Y115.53 E.02295
G1 X131.615 Y114.803 E.02293
G1 X131.634 Y114.567 E.00742
M204 S1000
G1 X132.012 Y114.531 F10800
M204 S800
;TYPE:External perimeter
G1 F600
G1 X132.05 Y114.11 E.01325
G1 X132.231 Y113.475 E.0207
G1 X132.528 Y112.885 E.02071
G1 X132.93 Y112.361 E.02071
G1 X133.423 Y111.921 E.02072
G1 X133.989 Y111.582 E.02069
G1 X134.61 Y111.355 E.02073
G1 X135.45 Y111.242 E.02657
G1 X136.139 Y111.299 E.02168
G1 X136.775 Y111.48 E.02073
G1 X137.366 Y111.778 E.02075
G1 X137.89 Y112.18 E.02071
G1 X138.344 Y112.695 E.02153
G1 X138.754 Y113.437 E.02658
G1 X138.944 Y114.075 E.02087
G1 X139.009 Y114.732 E.0207
G1 X138.95 Y115.39 E.02071
G1 X138.832 Y115.851 E.01492
G1 X138.584 Y116.425 E.01961
G1 X138.329 Y116.827 E.01493
G1 X137.915 Y117.296 E.01961
G1 X137.396 Y117.703 E.02068
G1 X136.809 Y118.006 E.02071
G1 X136.175 Y118.194 E.02073
G1 X135.518 Y118.259 E.0207
G1 X134.86 Y118.2 E.02071
G1 X134.399 Y118.082 E.01492
G1 X133.825 Y117.834 E.01961
G1 X133.423 Y117.579 E.01493
G1 X132.954 Y117.165 E.01961
G1 X132.546 Y116.645 E.02072
G1 X132.244 Y116.058 E.0207
G1 X132.056 Y115.425 E.0207
G1 X131.991 Y114.767 E.02073
G1 X132.007 Y114.59 E.00557
M204 S1000
;WIPE_START
G1 F8640
G1 X132.012 Y114.531 E-.01367
G1 X132.05 Y114.11 E-.09761
G1 X132.231 Y113.475 E-.15246
G1 X132.528 Y112.885 E-.15252
G1 X132.93 Y112.361 E-.1525
G1 X133.423 Y111.921 E-.15258
G1 X133.989 Y111.582 E-.15234
G1 X134.503 Y111.394 E-.12632
;WIPE_END
G1 Z.4 F720
G1 X135.257 Y120.64 F10800
G1 Z.2 F720
G1 E1 F2100
M204 S800
;TYPE:Perimeter
G1 F600
G1 X135.401 Y120.618 E.00457
G1 X136.28 Y120.694 E.02766
G1 X136.88 Y120.868 E.01959
G1 X137.537 Y121.191 E.02295
G1 X138.121 Y121.632 E.02295
G1 X138.628 Y122.197 E.0238
G1 X139.085 Y123.006 E.02913
;WIDTH:0.423449
G1 X139.308 Y123.719 E.02364
G1 X139.373 Y124.448 E.02316
;WIDTH:0.425412
G1 X139.329 Y125.176 E.0232
G1 X139.207 Y125.667 E.01609
;WIDTH:0.419999
G1 X138.93 Y126.324 E.02236
G1 X138.527 Y126.935 E.02295
G1 X138.186 Y127.309 E.01587
G1 X137.626 Y127.752 E.02239
G1 X136.979 Y128.092 E.02292
G1 X136.28 Y128.306 E.02292
G1 X135.553 Y128.385 E.02293
G1 X134.825 Y128.326 E.0229
G1 X134.119 Y128.132 E.02296
G1 X133.659 Y127.923 E.01584
G1 X133.174 Y127.611 E.01808
G1 X132.704 Y127.198 E.01962
G1 X132.248 Y126.626 E.02294
G1 X131.908 Y125.979 E.02292
G1 X131.694 Y125.28 E.02292
G1 X131.615 Y124.553 E.02293
G1 X131.674 Y123.824 E.02293
G1 X131.868 Y123.12 E.0229
G1 X132.191 Y122.464 E.02293
G1 X132.632 Y121.88 E.02295
G1 X133.174 Y121.389 E.02293
G1 X133.798 Y121.008 E.02292
G1 X134.442 Y120.765 E.02158
G1 X135.198 Y120.649 E.02398
M204 S1000
G1 X135.281 Y121.017 F10800
M204 S800
;TYPE:External perimeter
G1 F600
G1 X135.45 Y120.992 E.00536
G1 X136.175 Y121.056 E.02282
G1 X136.775 Y121.231 E.0196
G1 X137.365 Y121.527 E.0207
G1 X137.89 Y121.93 E.02075
G1 X138.344 Y122.445 E.02153
G1 X138.754 Y123.187 E.02658
G1 X138.944 Y123.825 E.02087
G1 X139.009 Y124.482 E.0207
G1 X138.95 Y125.14 E.02071
G1 X138.832 Y125.601 E.01492
G1 X138.584 Y126.175 E.01961
G1 X138.215 Y126.723 E.02071
G1 X137.889 Y127.07 E.01493
G1 X137.395 Y127.454 E.01962
G1 X136.808 Y127.756 E.0207
G1 X136.175 Y127.944 E.0207
G1 X135.518 Y128.009 E.0207
G1 X134.86 Y127.951 E.02071
G1 X134.225 Y127.769 E.02071
G1 X133.799 Y127.57 E.01474
G1 X133.423 Y127.329 E.014
G1 X132.954 Y126.915 E.01961
G1 X132.546 Y126.395 E.02072
G1 X132.244 Y125.808 E.0207
G1 X132.056 Y125.175 E.0207
G1 X131.991 Y124.517 E.02073
G1 X132.05 Y123.86 E.02068
G1 X132.231 Y123.225 E.0207
G1 X132.527 Y122.635 E.0207
G1 X132.93 Y122.111 E.02073
G1 X133.423 Y121.671 E.02072
G1 X133.99 Y121.332 E.02071
G1 X134.57 Y121.12 E.01936
G1 X135.221 Y121.025 E.02063
M204 S1000
;WIPE_START
G1 F8640
G1 X135.281 Y121.017 E-.01398
G1 X135.45 Y120.992 E-.03945
G1 X136.175 Y121.056 E-.16806
