; generated by PrusaSlicer 2.9.2 on 2025-08-25 at 08:50:18 UTC


;
;
; 

; external perimeters extrusion width = 0.45mm
; perimeters extrusion width = 0.45mm
; infill extrusion width = 0.45mm
; solid infill extrusion width = 0.45mm
; top infill extrusion width = 0.40mm
; first layer extrusion width = 0.42mm

M73 P0 R16
M73 Q0 S16
M201 X1000 Y1000 Z200 E5000 ; sets maximum accelerations, mm/sec^2
M203 X200 Y200 Z12 E120 ; sets maximum feedrates, mm / sec
M204 S1250 T1250 ; sets acceleration (S) and retract acceleration (R), mm/sec^2
M205 X8.00 Y8.00 Z0.40 E4.50 ; sets the jerk limits, mm/sec
M205 S0 T0 ; sets the minimum extruding and travel feed rate, mm/sec

; printing object fmBoxTop.stl id:0 copy 0
; stop printing object fmBoxTop.stl id:0 copy 0

;TYPE:Custom
M862.3 P "MK3S" ; printer model check
M862.1 P0.4 ; nozzle diameter check
M115 U3.13.3 ; tell printer latest fw version
G90 ; use absolute coordinates
M83 ; extruder relative mode
M104 S240 ; set extruder temp
M140 S85 ; set bed temp
M190 S85 ; wait for bed temp
M109 S240 ; wait for extruder temp
G28 W ; home all without mesh bed level
G80 X107.123 Y76.1229 W35.7542 H57.7542 ; mesh bed levelling

G1 Z0.2 F720
G1 Y-3 F1000 ; go outside print area
G92 E0
G1 X60 E9 F1000 ; intro line
G1 X100 E12.5 F1000 ; intro line

G92 E0
M221 S95

; Don't change E values below. Excessive value can damage the printer.
M907 E430 ; set extruder motor current
G21 ; set units to millimeters
G90 ; use absolute coordinates
M83 ; use relative distances for extrusion

M900 K0.08 ; Filament gcode LA 1.5
M900 K45 ; Filament gcode LA 1.0




M107
;LAYER_CHANGE
;Z:0.2
;HEIGHT:0.2
G1 E-1 F2100
G1 Z.4 F720
G1 X107.702 Y77.252 F10800
G1 Z.2 F720
G1 E1 F2100
M204 S800
;TYPE:Skirt/Brim
;WIDTH:0.42
G1 F600
G1 X108.735 Y76.449 E.04102
G1 X109.5 Y76.311 E.02437
G1 X140.5 Y76.311 E.97198
G1 X141.748 Y76.702 E.04101
M73 P1 R16
M73 Q1 S16
G1 X142.551 Y77.735 E.04102
G1 X142.689 Y78.5 E.02437
G1 X142.689 Y131.5 E1.66178
G1 X142.298 Y132.748 E.04101
G1 X141.265 Y133.551 E.04102
G1 X140.5 Y133.689 E.02437
G1 X109.5 Y133.689 E.97198
G1 X108.252 Y133.298 E.04101
G1 X107.449 Y132.265 E.04102
G1 X107.311 Y131.5 E.02437
G1 X107.311 Y78.5 E1.66178
G1 X107.684 Y77.309 E.03913
M73 P2 R16
M73 Q2 S16
M204 S1000
;WIPE_START
G1 F8640
G1 X107.702 Y77.252 E-.0138
G1 X108.735 Y76.449 E-.30211
G1 X109.5 Y76.311 E-.17949
G1 X111.685 Y76.311 E-.5046
;WIPE_END
G1 Z.4 F720
; printing object fmBoxTop.stl id:0 copy 0
G1 X131.639 Y104.757 F10800
G1 Z.2 F720
G1 E1 F2100
M204 S800
;TYPE:Perimeter
;WIDTH:0.419999
G1 F600
G1 X131.674 Y104.324 E.01362
G1 X131.868 Y103.619 E.02293
G1 X132.192 Y102.963 E.02294
G1 X132.632 Y102.38 E.0229
G1 X133.174 Y101.888 E.02295
G1 X133.798 Y101.508 E.02291
G1 X134.442 Y101.265 E.02158
G1 X135.401 Y101.118 E.03042
G1 X136.172 Y101.174 E.02424
G1 X136.88 Y101.368 E.02302
G1 X137.537 Y101.692 E.02297
G1 X138.12 Y102.132 E.0229
G1 X138.471 Y102.495 E.01583
G1 X138.879 Y103.082 E.02241
G1 X139.1 Y103.536 E.01583
;WIDTH:0.423448
G1 X139.308 Y104.219 E.02259
G1 X139.373 Y104.948 E.02316
;WIDTH:0.425412
G1 X139.329 Y105.676 E.0232
G1 X139.207 Y106.167 E.01609
;WIDTH:0.419999
G1 X138.93 Y106.825 E.02238
G1 X138.665 Y107.255 E.01584
G1 X138.198 Y107.795 E.02238
G1 X137.627 Y108.251 E.02291
G1 X136.98 Y108.592 E.02293
G1 X136.28 Y108.806 E.02295
G1 X135.553 Y108.885 E.02293
G1 X135.367 Y108.877 E.00584
G1 X134.824 Y108.826 E.0171
G1 X134.119 Y108.631 E.02293
G1 X133.463 Y108.308 E.02293
G1 X132.859 Y107.848 E.0238
G1 X132.259 Y107.139 E.02912
G1 X131.908 Y106.479 E.02344
G1 X131.694 Y105.78 E.02292
G1 X131.615 Y105.053 E.02293
G1 X131.634 Y104.817 E.00742
M204 S1000
G1 X132.012 Y104.781 F10800
M204 S800
;TYPE:External perimeter
G1 F600
G1 X132.05 Y104.36 E.01325
G1 X132.231 Y103.725 E.0207
G1 X132.528 Y103.135 E.02071
G1 X132.93 Y102.611 E.02071
G1 X133.423 Y102.171 E.02072
G1 X133.99 Y101.832 E.02071
G1 X134.57 Y101.62 E.01936
G1 X135.45 Y101.492 E.02788
G1 X136.139 Y101.549 E.02168
G1 X136.775 Y101.73 E.02073
G1 X137.365 Y102.027 E.02071
G1 X137.889 Y102.43 E.02073
G1 X138.215 Y102.777 E.01493
G1 X138.567 Y103.294 E.01961
G1 X138.769 Y103.724 E.0149
G1 X138.944 Y104.325 E.01963
G1 X139.009 Y104.982 E.0207
G1 X138.95 Y105.64 E.02071
G1 X138.832 Y106.101 E.01492
G1 X138.584 Y106.675 E.01961
G1 X138.329 Y107.077 E.01493
G1 X137.915 Y107.546 E.01961
G1 X137.395 Y107.953 E.0207
G1 X136.809 Y108.256 E.02068
G1 X136.175 Y108.444 E.02073
M73 Q3 S16
G1 X135.518 Y108.509 E.0207
M73 P3 R16
G1 X135.402 Y108.502 E.00364
G1 X134.86 Y108.45 E.01707
G1 X134.224 Y108.269 E.02073
G1 X133.634 Y107.972 E.02071
G1 X133.091 Y107.551 E.02154
G1 X132.55 Y106.9 E.02654
G1 X132.244 Y106.308 E.02089
G1 X132.056 Y105.675 E.0207
G1 X131.991 Y105.017 E.02073
G1 X132.007 Y104.84 E.00557
M204 S1000
;WIPE_START
G1 F8640
G1 X132.012 Y104.781 E-.01367
G1 X132.05 Y104.36 E-.09761
G1 X132.231 Y103.725 E-.15246
G1 X132.528 Y103.135 E-.15252
G1 X132.93 Y102.611 E-.1525
G1 X133.423 Y102.171 E-.15258
G1 X133.99 Y101.832 E-.15254
G1 X134.503 Y101.644 E-.12612
;WIPE_END
G1 Z.4 F720
G1 X132.221 Y116.83 F10800
G1 Z.2 F720
G1 E1 F2100
M204 S800
;TYPE:Perimeter
G1 F600
G1 X131.908 Y116.229 E.02125
G1 X131.694 Y115.53 E.02292
G1 X131.615 Y114.803 E.02293
G1 X131.674 Y114.074 E.02293
G1 X131.868 Y113.369 E.02293
G1 X132.192 Y112.713 E.02294
G1 X132.632 Y112.13 E.0229
G1 X133.174 Y111.638 E.02295
G1 X133.798 Y111.258 E.02291
G1 X134.482 Y111.001 E.02291
G1 X135.401 Y110.868 E.02911
G1 X136.172 Y110.924 E.02424
G1 X136.98 Y111.158 E.02638
G1 X137.537 Y111.442 E.0196
G1 X138.121 Y111.882 E.02293
G1 X138.628 Y112.447 E.0238
G1 X139.085 Y113.256 E.02913
;WIDTH:0.423449
G1 X139.308 Y113.969 E.02364
G1 X139.373 Y114.698 E.02316
;WIDTH:0.425413
G1 X139.329 Y115.426 E.0232
G1 X139.207 Y115.917 E.01609
;WIDTH:0.419999
G1 X138.93 Y116.575 E.02238
G1 X138.665 Y117.005 E.01584
G1 X138.198 Y117.545 E.02238
G1 X137.627 Y118.001 E.02291
G1 X136.98 Y118.342 E.02293
G1 X136.28 Y118.556 E.02295
G1 X135.553 Y118.635 E.02293
G1 X134.825 Y118.576 E.0229
G1 X134.119 Y118.382 E.02296
G1 X133.659 Y118.173 E.01584
G1 X133.065 Y117.777 E.02238
G1 X132.541 Y117.267 E.02293
G1 X132.252 Y116.882 E.01509
M204 S1000
G1 X132.538 Y116.63 F10800
M204 S800
;TYPE:External perimeter
G1 F600
G1 X132.527 Y116.615 E.00058
G1 X132.244 Y116.058 E.01959
G1 X132.056 Y115.425 E.0207
G1 X131.991 Y114.768 E.0207
G1 X132.05 Y114.11 E.02071
G1 X132.231 Y113.475 E.0207
G1 X132.528 Y112.885 E.02071
G1 X132.93 Y112.361 E.02071
G1 X133.423 Y111.921 E.02072
G1 X133.99 Y111.582 E.02071
G1 X134.61 Y111.355 E.0207
G1 X135.45 Y111.242 E.02657
G1 X136.139 Y111.299 E.02168
G1 X136.808 Y111.494 E.02185
G1 X137.366 Y111.778 E.01963
G1 X137.89 Y112.18 E.02071
G1 X138.344 Y112.695 E.02153
G1 X138.754 Y113.437 E.02658
G1 X138.944 Y114.075 E.02087
G1 X139.009 Y114.732 E.0207
G1 X138.95 Y115.39 E.02071
G1 X138.832 Y115.851 E.01492
G1 X138.584 Y116.425 E.01961
G1 X138.329 Y116.827 E.01493
G1 X137.915 Y117.296 E.01961
G1 X137.395 Y117.703 E.0207
G1 X136.809 Y118.006 E.02068
G1 X136.175 Y118.194 E.02073
G1 X135.518 Y118.259 E.0207
G1 X134.86 Y118.201 E.02071
G1 X134.225 Y118.019 E.02071
G1 X133.794 Y117.817 E.01492
G1 X133.277 Y117.465 E.01961
G1 X132.807 Y117.001 E.02071
G1 X132.573 Y116.678 E.01251
M204 S1000
;WIPE_START
G1 F8640
G1 X132.538 Y116.63 E-.01372
G1 X132.527 Y116.615 E-.0043
G1 X132.244 Y116.058 E-.14426
G1 X132.056 Y115.425 E-.15247
G1 X131.991 Y114.768 E-.15244
G1 X132.05 Y114.11 E-.15254
G1 X132.231 Y113.475 E-.15246
G1 X132.528 Y112.885 E-.15252
G1 X132.726 Y112.626 E-.07529
;WIPE_END
G1 Z.4 F720
G1 X131.818 Y123.304 F10800
G1 Z.2 F720
M73 P3 R15
G1 E1 F2100
M204 S800
;TYPE:Perimeter
G1 F600
G1 X131.868 Y123.119 E.00601
G1 X132.192 Y122.463 E.02294
G1 X132.632 Y121.88 E.0229
G1 X133.197 Y121.369 E.02389
G1 X133.793 Y121.011 E.0218
G1 X134.483 Y120.751 E.02312
G1 X135.401 Y120.618 E.02908
G1 X136.172 Y120.674 E.02424
G1 X136.88 Y120.868 E.02302
G1 X137.537 Y121.192 E.02297
G1 X138.12 Y121.632 E.0229
G1 X138.628 Y122.197 E.02382
G1 X139.085 Y123.006 E.02913
;WIDTH:0.423449
G1 X139.308 Y123.719 E.02364
G1 X139.373 Y124.448 E.02316
;WIDTH:0.425412
G1 X139.329 Y125.176 E.0232
G1 X139.131 Y125.881 E.02329
;WIDTH:0.419999
G1 X138.809 Y126.537 E.02291
G1 X138.517 Y126.95 E.01586
G1 X138.121 Y127.368 E.01805
G1 X137.627 Y127.751 E.0196
G1 X136.979 Y128.092 E.02296
G1 X136.28 Y128.306 E.02292
G1 X135.553 Y128.385 E.02293
G1 X134.825 Y128.326 E.0229
G1 X134.12 Y128.132 E.02293
G1 X133.463 Y127.809 E.02295
G1 X133.051 Y127.517 E.01583
G1 X132.541 Y127.018 E.02237
G1 X132.121 Y126.418 E.02296
G1 X131.9 Y125.964 E.01583
G1 X131.694 Y125.28 E.0224
G1 X131.615 Y124.553 E.02293
G1 X131.674 Y123.824 E.02293
G1 X131.802 Y123.361 E.01506
M204 S1000
G1 X132.175 Y123.42 F10800
M204 S800
;TYPE:External perimeter
G1 F600
G1 X132.231 Y123.225 E.00636
G1 X132.528 Y122.635 E.02071
G1 X132.93 Y122.111 E.02071
G1 X133.431 Y121.665 E.02103
G1 X133.985 Y121.335 E.02022
G1 X134.61 Y121.105 E.02088
G1 X135.45 Y120.992 E.02657
G1 X136.139 Y121.049 E.02168
G1 X136.775 Y121.23 E.02073
G1 X137.365 Y121.528 E.02072
G1 X137.889 Y121.93 E.02071
G1 X138.344 Y122.445 E.02155
G1 X138.754 Y123.187 E.02658
G1 X138.944 Y123.825 E.02087
G1 X139.009 Y124.482 E.0207
G1 X138.95 Y125.14 E.02071
G1 X138.769 Y125.775 E.0207
G1 X138.473 Y126.365 E.0207
G1 X138.197 Y126.746 E.01475
M73 Q4 S16
G1 X137.89 Y127.07 E.01399
M73 P4 R15
G1 X137.395 Y127.453 E.01962
G1 X136.808 Y127.756 E.02071
G1 X136.175 Y127.944 E.0207
G1 X135.518 Y128.009 E.0207
G1 X134.86 Y127.951 E.02071
G1 X134.225 Y127.77 E.0207
G1 X133.635 Y127.473 E.02071
G1 X133.25 Y127.193 E.01493
G1 X132.808 Y126.751 E.0196
G1 X132.433 Y126.206 E.02074
G1 X132.231 Y125.775 E.01492
G1 X132.056 Y125.175 E.0196
G1 X131.991 Y124.517 E.02073
G1 X132.05 Y123.86 E.02068
G1 X132.159 Y123.477 E.01249
M204 S1000
;WIPE_START
G1 F8640
G1 X132.175 Y123.42 E-.01367
G1 X132.231 Y123.225 E-.04685
G1 X132.528 Y122.635 E-.15252
G1 X132.93 Y122.111 E-.1525
G1 X133.431 Y121.665 E-.15488
G1 X133.985 Y121.335 E-.14889
G1 X134.61 Y121.105 E-.15378
G1 X135.369 Y121.003 E-.17691
;WIPE_END
G1 Z.4 F720
G1 X131.688 Y95.977 F10800
G1 Z.2 F720
G1 E1 F2100
M204 S800
;TYPE:Perimeter
G1 F600
G1 X131.615 Y95.303 E.02126
G1 X131.674 Y94.574 E.02293
G1 X131.868 Y93.869 E.02293
G1 X132.192 Y93.213 E.02294
G1 X132.632 Y92.63 E.0229
G1 X133.174 Y92.138 E.02295
G1 X133.798 Y91.758 E.02291
G1 X134.483 Y91.501 E.02294
G1 X135.401 Y91.368 E.02908
G1 X136.173 Y91.424 E.02427
G1 X136.881 Y91.618 E.02302
G1 X137.536 Y91.941 E.0229
G1 X138.12 Y92.382 E.02295
G1 X138.628 Y92.947 E.02382
G1 X139.085 Y93.756 E.02913
;WIDTH:0.423449
G1 X139.308 Y94.469 E.02364
G1 X139.373 Y95.198 E.02316
;WIDTH:0.425413
G1 X139.329 Y95.926 E.0232
G1 X139.207 Y96.417 E.01609
;WIDTH:0.419999
G1 X138.93 Y97.075 E.02238
M73 Q4 S15
G1 X138.665 Y97.505 E.01584
G1 X138.198 Y98.045 E.02238
G1 X137.627 Y98.501 E.02291
G1 X136.98 Y98.842 E.02293
G1 X136.28 Y99.056 E.02295
G1 X135.553 Y99.135 E.02293
G1 X134.734 Y99.06 E.02579
G1 X134.249 Y98.928 E.01576
G1 X133.676 Y98.68 E.01958
G1 X133.065 Y98.277 E.02295
G1 X132.691 Y97.936 E.01587
G1 X132.248 Y97.376 E.02239
G1 X131.908 Y96.729 E.02292
G1 X131.696 Y96.036 E.02272
M204 S1000
G1 X132.054 Y95.907 F10800
M204 S800
;TYPE:External perimeter
G1 F600
G1 X131.991 Y95.267 E.02016
G1 X132.05 Y94.61 E.02068
G1 X132.231 Y93.975 E.0207
G1 X132.528 Y93.385 E.02071
G1 X132.93 Y92.861 E.02071
G1 X133.423 Y92.421 E.02072
G1 X133.99 Y92.082 E.02071
G1 X134.61 Y91.855 E.0207
G1 X135.45 Y91.742 E.02657
G1 X136.139 Y91.799 E.02168
G1 X136.775 Y91.981 E.02074
G1 X137.365 Y92.277 E.0207
G1 X137.889 Y92.68 E.02073
G1 X138.344 Y93.195 E.02155
G1 X138.754 Y93.937 E.02658
G1 X138.944 Y94.575 E.02087
G1 X139.009 Y95.232 E.0207
G1 X138.95 Y95.89 E.02071
G1 X138.832 Y96.351 E.01492
G1 X138.584 Y96.925 E.01961
G1 X138.329 Y97.327 E.01493
G1 X137.915 Y97.796 E.01961
G1 X137.395 Y98.203 E.0207
G1 X136.809 Y98.506 E.02068
G1 X136.175 Y98.694 E.02073
G1 X135.518 Y98.759 E.0207
G1 X134.828 Y98.695 E.02173
G1 X134.399 Y98.582 E.01391
G1 X133.825 Y98.334 E.01961
G1 X133.277 Y97.965 E.02071
G1 X132.93 Y97.639 E.01493
G1 X132.546 Y97.145 E.01962
G1 X132.244 Y96.558 E.0207
G1 X132.068 Y95.965 E.01939
M204 S1000
;WIPE_START
G1 F8640
G1 X132.054 Y95.907 E-.01378
G1 X131.991 Y95.267 E-.14849
G1 X132.05 Y94.61 E-.15231
G1 X132.231 Y93.975 E-.15246
G1 X132.528 Y93.385 E-.15252
G1 X132.93 Y92.861 E-.1525
G1 X133.423 Y92.421 E-.15258
G1 X133.703 Y92.254 E-.07536
;WIPE_END
G1 Z.4 F720
G1 X131.639 Y85.257 F10800
G1 Z.2 F720
G1 E1 F2100
M204 S800
;TYPE:Perimeter
G1 F600
G1 X131.674 Y84.824 E.01362
G1 X131.868 Y84.119 E.02293
G1 X132.192 Y83.463 E.02294
G1 X132.632 Y82.88 E.0229
G1 X133.174 Y82.388 E.02295
G1 X133.798 Y82.008 E.02291
G1 X134.482 Y81.751 E.02291
G1 X135.401 Y81.618 E.02911
G1 X136.172 Y81.674 E.02424
G1 X136.88 Y81.868 E.02302
G1 X137.496 Y82.171 E.02152
G1 X138.12 Y82.632 E.02433
G1 X138.628 Y83.197 E.02382
G1 X139.085 Y84.006 E.02913
;WIDTH:0.423449
G1 X139.308 Y84.719 E.02364
G1 X139.373 Y85.448 E.02316
;WIDTH:0.425412
G1 X139.329 Y86.176 E.0232
G1 X139.207 Y86.667 E.01609
;WIDTH:0.419999
G1 X138.93 Y87.324 E.02236
G1 X138.527 Y87.935 E.02295
G1 X138.017 Y88.459 E.02293
G1 X137.612 Y88.762 E.01586
G1 X136.98 Y89.092 E.02235
G1 X136.28 Y89.306 E.02295
G1 X135.553 Y89.385 E.02293
G1 X134.824 Y89.326 E.02293
G1 X134.119 Y89.131 E.02293
G1 X133.463 Y88.809 E.02291
G1 X133.05 Y88.517 E.01586
G1 X132.66 Y88.154 E.01671
G1 X132.248 Y87.626 E.021
G1 X131.908 Y86.979 E.02292
G1 X131.674 Y86.175 E.02625
G1 X131.615 Y85.553 E.01959
G1 X131.634 Y85.317 E.00742
M204 S1000
G1 X132.012 Y85.281 F10800
M204 S800
;TYPE:External perimeter
G1 F600
G1 X132.05 Y84.86 E.01325
G1 X132.231 Y84.225 E.0207
G1 X132.528 Y83.635 E.02071
G1 X132.93 Y83.111 E.02071
G1 X133.423 Y82.671 E.02072
G1 X133.99 Y82.332 E.02071
G1 X134.61 Y82.105 E.0207
G1 X135.45 Y81.992 E.02657
G1 X136.139 Y82.049 E.02168
G1 X136.775 Y82.23 E.02073
G1 X137.325 Y82.507 E.01931
G1 X137.889 Y82.93 E.0221
G1 X138.344 Y83.445 E.02155
M73 Q5 S15
G1 X138.754 Y84.187 E.02658
M73 P5 R15
G1 X138.944 Y84.825 E.02087
G1 X139.009 Y85.482 E.0207
G1 X138.95 Y86.14 E.02071
G1 X138.832 Y86.601 E.01492
G1 X138.584 Y87.175 E.01961
G1 X138.215 Y87.723 E.02071
G1 X137.751 Y88.193 E.02071
G1 X137.365 Y88.473 E.01495
G1 X136.808 Y88.756 E.01959
G1 X136.175 Y88.944 E.0207
G1 X135.518 Y89.009 E.0207
G1 X134.86 Y88.95 E.02071
G1 X134.225 Y88.769 E.0207
G1 X133.635 Y88.473 E.0207
G1 X133.254 Y88.197 E.01475
G1 X132.93 Y87.889 E.01402
G1 X132.546 Y87.395 E.01962
G1 X132.244 Y86.808 E.0207
G1 X132.049 Y86.14 E.02182
G1 X131.991 Y85.517 E.01962
G1 X132.007 Y85.34 E.00557
M204 S1000
;WIPE_START
G1 F8640
G1 X132.012 Y85.281 E-.01367
G1 X132.05 Y84.86 E-.09761
G1 X132.231 Y84.225 E-.15246
G1 X132.528 Y83.635 E-.15252
G1 X132.93 Y83.111 E-.1525
G1 X133.423 Y82.671 E-.15258
G1 X133.99 Y82.332 E-.15254
G1 X134.503 Y82.145 E-.12612
;WIPE_END
G1 Z.4 F720
G1 X130.608 Y117.608 F10800
G1 Z.2 F720
G1 E1 F2100
M204 S800
;TYPE:Perimeter
G1 F600
G1 X130.508 Y117.709 E.00446
G1 X130.221 Y117.787 E.00933
G1 X115.779 Y117.787 E.45282
G1 X115.531 Y117.73 E.00798
G1 X115.352 Y117.593 E.00707
G1 X115.221 Y117.319 E.00952
G1 X115.213 Y117.221 E.00308
G1 X115.213 Y92.779 E.76636
G1 X115.279 Y92.512 E.00862
G1 X115.439 Y92.326 E.00769
G1 X115.703 Y92.218 E.00894
G1 X130.221 Y92.213 E.4552
G1 X130.455 Y92.264 E.00751
G1 X130.681 Y92.448 E.00914
G1 X130.783 Y92.714 E.00893
G1 X130.787 Y93.501 E.02468
G1 X130.787 Y117.221 E.74372
G1 X130.71 Y117.506 E.00926
M73 P6 R15
M73 Q6 S15
G1 X130.651 Y117.566 E.00264
M204 S1000
G1 X130.364 Y117.323 F10800
M204 S800
;TYPE:External perimeter
G1 F600
G1 X130.347 Y117.362 E.00133
G1 X130.221 Y117.41 E.00423
G1 X115.779 Y117.41 E.45282
G1 X115.636 Y117.345 E.00493
G1 X115.59 Y117.221 E.00415
G1 X115.59 Y92.779 E.76636
G1 X115.636 Y92.655 E.00415
G1 X115.779 Y92.59 E.00493
G1 X130.221 Y92.59 E.45282
G1 X130.364 Y92.656 E.00494
G1 X130.41 Y92.779 E.00412
G1 X130.41 Y117.221 E.76636
