; generated by PrusaSlicer 2.9.2 on 2025-08-24 at 14:00:20 UTC


;
;
; 

; external perimeters extrusion width = 0.45mm
; perimeters extrusion width = 0.45mm
; infill extrusion width = 0.45mm
; solid infill extrusion width = 0.45mm
; top infill extrusion width = 0.40mm
; support material extrusion width = 0.35mm
; first layer extrusion width = 0.42mm

M73 P0 R37
M73 Q0 S37
M201 X1000 Y1000 Z200 E5000 ; sets maximum accelerations, mm/sec^2
M203 X200 Y200 Z12 E120 ; sets maximum feedrates, mm / sec
M204 S1250 T1250 ; sets acceleration (S) and retract acceleration (R), mm/sec^2
M205 X8.00 Y8.00 Z0.40 E4.50 ; sets the jerk limits, mm/sec
M205 S0 T0 ; sets the minimum extruding and travel feed rate, mm/sec

; printing object fmBox_bottom.stl id:0 copy 0
; stop printing object fmBox_bottom.stl id:0 copy 0

;TYPE:Custom
M862.3 P "MK3S" ; printer model check
M862.1 P0.4 ; nozzle diameter check
M115 U3.13.3 ; tell printer latest fw version
G90 ; use absolute coordinates
M83 ; extruder relative mode
M104 S240 ; set extruder temp
M140 S85 ; set bed temp
M190 S85 ; wait for bed temp
M109 S240 ; wait for extruder temp
G28 W ; home all without mesh bed level
G80 X107.166 Y76.1658 W35.6683 H57.6683 ; mesh bed levelling

G1 Z0.2 F720
G1 Y-3 F1000 ; go outside print area
G92 E0
G1 X60 E9 F1000 ; intro line
G1 X100 E12.5 F1000 ; intro line

G92 E0
M221 S95

; Don't change E values below. Excessive value can damage the printer.
M907 E430 ; set extruder motor current
G21 ; set units to millimeters
G90 ; use absolute coordinates
M83 ; use relative distances for extrusion

M900 K0.08 ; Filament gcode LA 1.5
M900 K45 ; Filament gcode LA 1.0




M107
;LAYER_CHANGE
;Z:0.4
;HEIGHT:0.4
G1 E-1 F2100
G1 Z.6 F720
G1 X107.724 Y77.259 F10800
G1 Z.4 F720
G1 E1 F2100
M204 S800
;TYPE:Skirt/Brim
;WIDTH:0.42
G1 F300
G1 X108.755 Y76.465 E.07231
G1 X109.5 Y76.333 E.04205
G1 X140.5 Y76.333 E1.7227
G1 X141.741 Y76.724 E.07231
G1 X142.535 Y77.755 E.07231
G1 X142.667 Y78.5 E.04205
G1 X142.667 Y131.5 E2.94526
G1 X142.276 Y132.741 E.07231
M73 P1 R36
M73 Q1 S37
G1 X141.245 Y133.535 E.07231
G1 X140.5 Y133.667 E.04205
G1 X109.5 Y133.667 E1.7227
G1 X108.259 Y133.276 E.07231
G1 X107.465 Y132.245 E.07231
G1 X107.333 Y131.5 E.04205
G1 X107.333 Y78.5 E2.94526
G1 X107.706 Y77.316 E.06898
M73 Q1 S36
M204 S1000
;WIPE_START
G1 F8640
G1 X107.724 Y77.259 E-.0138
G1 X108.755 Y76.465 E-.30048
G1 X109.5 Y76.333 E-.1747
G1 X111.713 Y76.333 E-.51102
;WIPE_END
G1 Z.6 F720
; printing object fmBox_bottom.stl id:0 copy 0
G1 X116.555 Y124.355 F10800
G1 Z.4 F720
G1 E1 F2100
M204 S800
;TYPE:Support material
G1 F300
G1 X116.836 Y124.637 E.02212
G1 X119.577 Y124.637 E.15232
G1 X119.858 Y124.355 E.02212
M73 Q2 S36
G1 X119.858 Y120.847 E.19494
G1 X120.29 Y120.847 E.02401
M73 P2 R36
G1 X120.29 Y124.355 E.19494
G1 X120.571 Y124.637 E.02212
G1 X123.396 Y124.637 E.15699
G1 X123.396 Y125.477 E.04668
G1 X116.123 Y125.477 E.40417
G1 X116.123 Y120.706 E.26513
G1 X116.555 Y120.706 E.02401
G1 X116.555 Y124.305 E.2
M204 S1000
;WIPE_START
G1 F8640
G1 X116.555 Y120.706 E-.83102
G1 X116.123 Y120.706 E-.09975
G1 X116.123 Y121.006 E-.06923
;WIPE_END
G1 Z.6 F720
G1 X122.772 Y125.327 F10800
G1 Z.4 F720
G1 E1 F2100
M204 S800
G1 F300
G1 X122.772 Y124.937 E.02167
G1 X122.401 Y124.937 E.02062
G1 X122.401 Y125.176 E.01328
G1 X122.03 Y125.176 E.02062
G1 X122.03 Y124.937 E.01328
G1 X121.658 Y124.937 E.02067
G1 X121.658 Y125.176 E.01328
G1 X121.287 Y125.176 E.02062
G1 X121.287 Y124.937 E.01328
G1 X120.916 Y124.937 E.02062
G1 X120.916 Y125.176 E.01328
G1 X120.545 Y125.176 E.02062
G1 X120.545 Y124.937 E.01328
G1 X120.446 Y124.937 E.0055
G1 X120.173 Y124.664 E.02145
G1 X120.173 Y125.176 E.02845
G1 X119.802 Y125.176 E.02062
G1 X119.802 Y124.837 E.01884
G1 X119.702 Y124.937 E.00786
G1 X119.431 Y124.937 E.01506
G1 X119.431 Y125.176 E.01328
G1 X119.059 Y125.176 E.02067
G1 X119.059 Y124.937 E.01328
G1 X118.688 Y124.937 E.02062
G1 X118.688 Y125.176 E.01328
G1 X118.317 Y125.176 E.02062
G1 X118.317 Y124.937 E.01328
G1 X117.946 Y124.937 E.02062
G1 X117.946 Y125.176 E.01328
G1 X117.574 Y125.176 E.02067
G1 X117.574 Y124.937 E.01328
G1 X117.203 Y124.937 E.02062
G1 X117.203 Y125.176 E.01328
G1 X116.832 Y125.176 E.02062
G1 X116.832 Y124.937 E.01328
G1 X116.711 Y124.937 E.00672
G1 X116.46 Y124.687 E.01969
G1 X116.46 Y125.327 E.03557
M204 S1000
;WIPE_START
G1 F8640
G1 X116.46 Y124.687 E-.14778
G1 X116.711 Y124.937 E-.0818
G1 X116.832 Y124.937 E-.02794
G1 X116.832 Y125.176 E-.05519
G1 X117.203 Y125.176 E-.08566
G1 X117.203 Y124.937 E-.05519
G1 X117.574 Y124.937 E-.08566
G1 X117.574 Y125.176 E-.05519
G1 X117.946 Y125.176 E-.0859
G1 X117.946 Y124.937 E-.05519
G1 X118.317 Y124.937 E-.08566
G1 X118.317 Y125.176 E-.05519
G1 X118.688 Y125.176 E-.08566
G1 X118.688 Y125.012 E-.03799
;WIPE_END
G1 Z.6 F720
G1 X123.396 Y113.58 F10800
G1 Z.4 F720
G1 E1 F2100
M204 S800
G1 F300
G1 X121.578 Y114.087 E.10488
G1 X121.382 Y114.344 E.01796
G1 X121.382 Y117.451 E.17266
G1 X121.578 Y117.708 E.01796
G1 X123.396 Y118.215 E.10488
G1 X123.396 Y118.988 E.04296
G1 X116.123 Y116.6 E.4254
G1 X116.123 Y115.196 E.07802
G1 X123.396 Y112.812 E.42533
G1 X123.396 Y113.53 E.0399
M204 S1000
G1 X120.076 Y114.508 F10800
M204 S800
G1 F300
G1 X120.606 Y114.357 E.03062
G1 X120.987 Y114.645 E.02654
G1 X120.987 Y117.149 E.13915
G1 X120.606 Y117.437 E.02654
G1 X116.275 Y116.293 E.24893
G1 X116.273 Y115.504 E.04385
G1 X120.028 Y114.521 E.2157
M204 S1000
;WIPE_START
G1 F8640
G1 X116.273 Y115.504 E-.89626
G1 X116.274 Y115.953 E-.10374
;WIPE_END
G1 Z.6 F720
G1 X122.772 Y118.625 F10800
G1 Z.4 F720
G1 E1 F2100
M204 S800
G1 F300
G1 X122.772 Y118.353 E.01512
G1 X122.401 Y118.25 E.0214
G1 X122.401 Y118.345 E.00528
G1 X122.03 Y118.223 E.0217
G1 X122.03 Y118.146 E.00428
G1 X121.287 Y117.979 E.04232
G1 X121.287 Y117.823 E.00867
G1 X121.082 Y117.455 E.02341
G1 X120.916 Y117.58 E.01155
G1 X120.916 Y117.857 E.01539
G1 X120.545 Y117.735 E.0217
G1 X120.545 Y117.576 E.00884
M204 S1000
;WIPE_START
G1 F8640
G1 X120.545 Y117.735 E-.03671
G1 X120.916 Y117.857 E-.09018
G1 X120.916 Y117.58 E-.06396
G1 X121.082 Y117.455 E-.04798
G1 X121.287 Y117.823 E-.09727
G1 X121.287 Y117.979 E-.03602
G1 X122.03 Y118.146 E-.17584
G1 X122.03 Y118.223 E-.01778
G1 X122.401 Y118.345 E-.09018
G1 X122.401 Y118.25 E-.02194
G1 X122.772 Y118.353 E-.08891
G1 X122.772 Y118.625 E-.06281
;WIPE_END
G1 E-.17042 F2100
G1 Z.6 F720
G1 X122.772 Y113.598 F10800
G1 Z.4 F720
G1 E1 F2100
M204 S800
G1 F300
G1 X122.772 Y113.333 E.01473
G1 X122.401 Y113.455 E.0217
G1 X122.401 Y113.545 E.005
G1 X121.658 Y113.698 E.04216
G1 X121.399 Y113.824 E.01601
G1 X121.287 Y113.972 E.01031
G1 X121.287 Y113.82 E.00845
G1 X120.916 Y113.942 E.0217
G1 X120.916 Y114.403 E.02562
M204 S1000
;WIPE_START
G1 F8640
G1 X120.916 Y113.942 E-.10645
G1 X121.287 Y113.82 E-.09018
G1 X121.287 Y113.972 E-.0351
G1 X121.399 Y113.824 E-.04286
G1 X121.658 Y113.698 E-.06651
G1 X122.401 Y113.545 E-.17516
G1 X122.401 Y113.455 E-.02078
G1 X122.772 Y113.333 E-.09018
G1 X122.772 Y113.598 E-.06119
;WIPE_END
G1 E-.31159 F2100
G1 Z.6 F720
G1 X123.396 Y107.429 F10800
G1 Z.4 F720
G1 E1 F2100
M204 S800
G1 F300
G1 X117.147 Y109.805 E.37152
G1 X117.344 Y110.627 E.04697
G1 X119.676 Y110.417 E.13012
G1 X123.396 Y110.413 E.20672
G1 X123.396 Y111.021 E.03379
M73 Q3 S36
G1 X116.123 Y111.021 E.40417
M73 P3 R36
G1 X116.123 Y109.776 E.06919
G1 X122.539 Y107.345 E.38128
G1 X122.338 Y106.52 E.04719
G1 X119.99 Y106.733 E.13102
G1 X116.123 Y106.737 E.21489
G1 X116.123 Y106.129 E.03379
G1 X123.396 Y106.129 E.40417
G1 X123.396 Y107.379 E.06946
M204 S1000
;WIPE_START
G1 F8640
G1 X123.396 Y106.129 E-.28863
G1 X120.315 Y106.129 E-.71137
;WIPE_END
G1 Z.6 F720
G1 X122.772 Y110.871 F10800
G1 Z.4 F720
G1 E1 F2100
M204 S800
G1 F300
G1 X122.772 Y110.714 E.00872
G1 X119.802 Y110.721 E.16505
G1 X119.802 Y110.564 E.00872
M204 S1000
;WIPE_START
G1 F8640
G1 X119.802 Y110.721 E-.03625
G1 X122.772 Y110.714 E-.68578
G1 X122.772 Y110.871 E-.03625
;WIPE_END
G1 E-.24172 F2100
G1 Z.6 F720
G1 X122.772 Y107.506 F10800
G1 Z.4 F720
G1 E1 F2100
M204 S800
G1 F300
G1 X122.772 Y106.279 E.06819
M204 S1000
G1 X119.802 Y106.586 F10800
M204 S800
G1 F300
G1 X119.802 Y106.429 E.00872
G1 X116.46 Y106.429 E.18572
G1 X116.46 Y106.587 E.00878
M204 S1000
;WIPE_START
G1 F8640
G1 X116.46 Y106.429 E-.03648
G1 X119.802 Y106.429 E-.77168
G1 X119.802 Y106.586 E-.03625
;WIPE_END
G1 E-.15559 F2100
G1 Z.6 F720
G1 X116.832 Y110.871 F10800
G1 Z.4 F720
G1 E1 F2100
M204 S800
G1 F300
G1 X116.832 Y109.829 E.0579
G1 X116.46 Y109.97 E.02211
G1 X116.46 Y110.871 E.05007
M204 S1000
;WIPE_START
G1 F8640
G1 X116.46 Y109.97 E-.20804
G1 X116.832 Y109.829 E-.09186
G1 X116.832 Y110.871 E-.2406
;WIPE_END
G1 E-.4595 F2100
G1 Z.6 F720
G1 X116.555 Y100.548 F10800
G1 Z.4 F720
G1 E1 F2100
M204 S800
G1 F300
G1 X116.836 Y100.829 E.02208
G1 X123.396 Y100.829 E.36455
G1 X123.396 Y101.67 E.04674
G1 X116.836 Y101.67 E.36455
G1 X116.555 Y101.951 E.02208
G1 X116.555 Y104.148 E.12209
G1 X116.123 Y104.148 E.02401
G1 X116.123 Y98.352 E.32209
G1 X116.555 Y98.352 E.02401
M73 P3 R35
G1 X116.555 Y100.498 E.11926
M204 S1000
;WIPE_START
G1 F8640
G1 X116.555 Y98.352 E-.49552
G1 X116.123 Y98.352 E-.09975
G1 X116.123 Y100.105 E-.40473
;WIPE_END
G1 Z.6 F720
G1 X122.772 Y101.52 F10800
G1 Z.4 F720
G1 E1 F2100
M204 S800
G1 F300
G1 X122.772 Y101.13 E.02167
G1 X122.401 Y101.13 E.02062
G1 X122.401 Y101.369 E.01328
G1 X122.03 Y101.369 E.02062
G1 X122.03 Y101.13 E.01328
G1 X121.658 Y101.13 E.02067
G1 X121.658 Y101.369 E.01328
G1 X121.287 Y101.369 E.02062
G1 X121.287 Y101.13 E.01328
G1 X120.916 Y101.13 E.02062
G1 X120.916 Y101.369 E.01328
G1 X120.545 Y101.369 E.02062
G1 X120.545 Y101.13 E.01328
G1 X120.173 Y101.13 E.02067
G1 X120.173 Y101.369 E.01328
G1 X119.802 Y101.369 E.02062
G1 X119.802 Y101.13 E.01328
G1 X119.431 Y101.13 E.02062
G1 X119.431 Y101.369 E.01328
G1 X119.059 Y101.369 E.02067
G1 X119.059 Y101.13 E.01328
G1 X118.688 Y101.13 E.02062
G1 X118.688 Y101.369 E.01328
G1 X118.317 Y101.369 E.02062
G1 X118.317 Y101.13 E.01328
G1 X117.946 Y101.13 E.02062
G1 X117.946 Y101.369 E.01328
G1 X117.574 Y101.369 E.02067
G1 X117.574 Y101.13 E.01328
G1 X117.203 Y101.13 E.02062
G1 X117.203 Y101.369 E.01328
G1 X116.832 Y101.369 E.02062
G1 X116.832 Y101.13 E.01328
G1 X116.711 Y101.13 E.00672
G1 X116.46 Y100.879 E.01973
G1 X116.46 Y101.833 E.05301
M204 S1000
;WIPE_START
G1 F8640
G1 X116.46 Y100.879 E-.22028
G1 X116.711 Y101.13 E-.08196
G1 X116.832 Y101.13 E-.02794
G1 X116.832 Y101.369 E-.05519
G1 X117.203 Y101.369 E-.08566
G1 X117.203 Y101.13 E-.05519
G1 X117.574 Y101.13 E-.08566
G1 X117.574 Y101.369 E-.05519
G1 X117.946 Y101.369 E-.0859
G1 X117.946 Y101.13 E-.05519
G1 X118.317 Y101.13 E-.08566
G1 X118.317 Y101.369 E-.05519
G1 X118.538 Y101.369 E-.05099
;WIPE_END
G1 Z.6 F720
G1 X123.396 Y91.604 F10800
G1 Z.4 F720
G1 E1 F2100
M204 S800
G1 F300
G1 X121.578 Y92.111 E.10488
G1 X121.382 Y92.368 E.01796
G1 X121.382 Y95.474 E.1726
G1 X121.578 Y95.732 E.01801
G1 X123.396 Y96.239 E.10488
G1 X123.396 Y97.012 E.04296
G1 X116.123 Y94.623 E.42541
G1 X116.123 Y93.219 E.07802
G1 X123.396 Y90.836 E.42531
M73 P4 R35
M73 Q4 S36
G1 X123.396 Y91.554 E.0399
M204 S1000
G1 X120.076 Y92.531 F10800
M204 S800
G1 F300
G1 X120.606 Y92.381 E.03061
G1 X120.987 Y92.669 E.02654
G1 X120.987 Y95.173 E.13915
G1 X120.606 Y95.461 E.02654
G1 X116.275 Y94.317 E.24893
G1 X116.273 Y93.528 E.04385
M73 Q4 S35
G1 X120.028 Y92.545 E.2157
M204 S1000
;WIPE_START
G1 F8640
G1 X116.273 Y93.528 E-.89626
G1 X116.274 Y93.977 E-.10374
;WIPE_END
G1 Z.6 F720
G1 X122.772 Y96.649 F10800
G1 Z.4 F720
G1 E1 F2100
M204 S800
G1 F300
G1 X122.772 Y96.377 E.01512
G1 X122.401 Y96.273 E.02141
G1 X122.401 Y96.368 E.00528
G1 X122.03 Y96.246 E.0217
G1 X122.03 Y96.17 E.00422
G1 X121.287 Y96.003 E.04232
G1 X121.287 Y95.846 E.00872
G1 X121.082 Y95.479 E.02336
G1 X120.916 Y95.604 E.01155
G1 X120.916 Y95.881 E.01539
G1 X120.545 Y95.759 E.0217
G1 X120.545 Y95.6 E.00884
M204 S1000
;WIPE_START
G1 F8640
G1 X120.545 Y95.759 E-.03671
G1 X120.916 Y95.881 E-.09018
G1 X120.916 Y95.604 E-.06396
G1 X121.082 Y95.479 E-.04798
G1 X121.287 Y95.846 E-.09707
G1 X121.287 Y96.003 E-.03625
G1 X122.03 Y96.17 E-.17584
G1 X122.03 Y96.246 E-.01755
G1 X122.401 Y96.368 E-.09018
G1 X122.401 Y96.273 E-.02194
G1 X122.772 Y96.377 E-.08897
G1 X122.772 Y96.649 E-.06281
;WIPE_END
G1 E-.17056 F2100
G1 Z.6 F720
G1 X122.772 Y91.622 F10800
G1 Z.4 F720
G1 E1 F2100
M204 S800
G1 F300
G1 X122.772 Y91.357 E.01473
G1 X122.401 Y91.479 E.0217
G1 X122.401 Y91.569 E.005
G1 X121.658 Y91.722 E.04216
G1 X121.399 Y91.848 E.01601
G1 X121.287 Y91.996 E.01031
G1 X121.287 Y91.844 E.00845
G1 X120.916 Y91.965 E.02169
G1 X120.916 Y92.427 E.02567
M204 S1000
;WIPE_START
G1 F8640
G1 X120.916 Y91.965 E-.10668
G1 X121.287 Y91.844 E-.09011
G1 X121.287 Y91.996 E-.0351
G1 X121.399 Y91.848 E-.04286
G1 X121.658 Y91.722 E-.06651
G1 X122.401 Y91.569 E-.17516
G1 X122.401 Y91.479 E-.02078
G1 X122.772 Y91.357 E-.09018
G1 X122.772 Y91.622 E-.06119
;WIPE_END
G1 E-.31143 F2100
G1 Z.6 F720
G1 X121.617 Y83.723 F10800
G1 Z.4 F720
G1 E1 F2100
M204 S800
G1 F300
G1 X122.271 Y83.869 E.03724
G1 X122.771 Y84.216 E.03382
G1 X123.171 Y84.793 E.03902
G1 X123.428 Y85.59 E.04654
G1 X123.518 Y86.62 E.05746
G1 X123.437 Y87.556 E.05221
G1 X123.203 Y88.314 E.04408
G1 X122.741 Y89.006 E.04624
G1 X122.038 Y89.486 E.0473
G1 X121.937 Y88.701 E.04398
G1 X122.637 Y88.161 E.04913
G1 X122.881 Y87.787 E.02482
G1 X123.043 Y87.337 E.02658
G1 X123.13 Y86.569 E.04295
G1 X123.041 Y85.709 E.04805
G1 X122.845 Y85.197 E.03047
G1 X122.511 Y84.804 E.02866
G1 X122.117 Y84.591 E.02489
G1 X121.6 Y84.511 E.02907
G1 X121.233 Y84.559 E.02057
G1 X120.892 Y84.712 E.02077
G1 X120.383 Y85.254 E.04132
G1 X120.1 Y85.893 E.03884
G1 X119.516 Y87.912 E.1168
G1 X119.248 Y88.443 E.03305
G1 X118.932 Y88.83 E.02776
G1 X118.424 Y89.138 E.03301
G1 X117.832 Y89.234 E.03333
G1 X117.238 Y89.137 E.03345
G1 X116.772 Y88.852 E.03036
G1 X116.45 Y88.463 E.02806
G1 X116.203 Y87.954 E.03144
G1 X115.998 Y86.791 E.06563
G1 X116.021 Y86.045 E.04148
G1 X116.134 Y85.426 E.03497
G1 X116.326 Y84.936 E.02925
G1 X116.589 Y84.561 E.02545
G1 X117.311 Y84.084 E.04809
G1 X117.391 Y84.877 E.04429
G1 X116.746 Y85.339 E.04409
G1 X116.384 Y86.033 E.0435
G1 X116.317 Y86.85 E.04555
G1 X116.456 Y87.548 E.03955
G1 X116.704 Y87.982 E.02778
G1 X117.061 Y88.281 E.02588
G1 X117.522 Y88.43 E.02692
G1 X117.982 Y88.42 E.02557
G1 X118.522 Y88.172 E.03302
G1 X118.935 Y87.663 E.03643
G1 X119.692 Y85.276 E.13916
G1 X120.155 Y84.37 E.05654
G1 X120.739 Y83.878 E.04244
G1 X121.122 Y83.753 E.02239
G1 X121.567 Y83.722 E.02479
M204 S1000
;WIPE_START
G1 F8640
G1 X121.122 Y83.753 E-.103
G1 X120.739 Y83.878 E-.09303
G1 X120.155 Y84.37 E-.17632
G1 X119.692 Y85.276 E-.23493
G1 X119.178 Y86.897 E-.39272
;WIPE_END
G1 Z.6 F720
G1 X122.772 Y88.74 F10800
G1 Z.4 F720
G1 E1 F2100
M204 S800
G1 F300
G1 X122.772 Y88.462 E.01545
G1 X122.401 Y88.781 E.02719
G1 X122.401 Y89.104 E.01795
M204 S1000
;WIPE_START
G1 F8640
G1 X122.401 Y88.781 E-.07458
G1 X122.772 Y88.462 E-.11298
G1 X122.772 Y88.74 E-.06419
;WIPE_END
G1 E-.74825 F2100
G1 Z.6 F720
G1 X122.401 Y84.552 F10800
G1 Z.4 F720
G1 E1 F2100
M204 S800
G1 F300
G1 X122.401 Y84.292 E.01445
G1 X122.238 Y84.187 E.01077
G1 X122.03 Y84.1 E.01253
G1 X122.03 Y84.256 E.00867
G1 X121.658 Y84.211 E.02082
G1 X121.658 Y84.028 E.01017
G1 X121.423 Y84.021 E.01306
G1 X121.287 Y84.032 E.00758
G1 X121.287 Y84.239 E.0115
G1 X120.916 Y84.357 E.02163
G1 X120.916 Y84.128 E.01273
G1 X120.648 Y84.287 E.01732
G1 X120.545 Y84.38 E.00771
G1 X120.545 Y84.596 E.012
G1 X120.173 Y85.024 E.03151
G1 X120.173 Y84.608 E.02312
M204 S1000
G1 X119.059 Y88.456 F10800
M204 S800
G1 F300
G1 X119.059 Y88.031 E.02362
G1 X118.688 Y88.424 E.03003
G1 X118.688 Y88.644 E.01223
G1 X118.432 Y88.809 E.01693
G1 X118.317 Y88.857 E.00692
G1 X118.317 Y88.636 E.01228
G1 X117.946 Y88.73 E.02127
G1 X117.946 Y88.93 E.01111
G1 X117.613 Y88.92 E.01851
G1 X117.574 Y88.737 E.0104
G1 X117.203 Y88.666 E.02099
G1 X117.203 Y88.96 E.01634
M204 S1000
;WIPE_START
G1 F8640
G1 X117.203 Y88.666 E-.06789
G1 X117.574 Y88.737 E-.08722
G1 X117.613 Y88.92 E-.0432
G1 X117.946 Y88.93 E-.07693
