; generated by PrusaSlicer 2.9.2 on 2025-08-24 at 13:55:07 UTC


;
;
; 

; external perimeters extrusion width = 0.45mm
; perimeters extrusion width = 0.45mm
; infill extrusion width = 0.45mm
; solid infill extrusion width = 0.45mm
; top infill extrusion width = 0.40mm
; first layer extrusion width = 0.42mm

M73 P0 R2
M73 Q0 S2
M201 X1000 Y1000 Z200 E5000 ; sets maximum accelerations, mm/sec^2
M203 X200 Y200 Z12 E120 ; sets maximum feedrates, mm / sec
M204 S1250 T1250 ; sets acceleration (S) and retract acceleration (R), mm/sec^2
M205 X8.00 Y8.00 Z0.40 E4.50 ; sets the jerk limits, mm/sec
M205 S0 T0 ; sets the minimum extruding and travel feed rate, mm/sec

; printing object fmBox_button.stl id:0 copy 0
; stop printing object fmBox_button.stl id:0 copy 0

;TYPE:Custom
M862.3 P "MK3S" ; printer model check
M862.1 P0.4 ; nozzle diameter check
M115 U3.13.3 ; tell printer latest fw version
G90 ; use absolute coordinates
M83 ; extruder relative mode
M104 S240 ; set extruder temp
M140 S85 ; set bed temp
M190 S85 ; wait for bed temp
M109 S240 ; wait for extruder temp
G28 W ; home all without mesh bed level
G80 X118.369 Y97.8688 W13.2625 H14.2625 ; mesh bed levelling

G1 Z0.2 F720
G1 Y-3 F1000 ; go outside print area
G92 E0
G1 X60 E9 F1000 ; intro line
G1 X100 E12.5 F1000 ; intro line
M73 P2 R2
M73 Q2 S2

G92 E0
M221 S95

; Don't change E values below. Excessive value can damage the printer.
M907 E430 ; set extruder motor current
G21 ; set units to millimeters
G90 ; use absolute coordinates
M83 ; use relative distances for extrusion

M900 K0.08 ; Filament gcode LA 1.5
M900 K45 ; Filament gcode LA 1.0




M107
;LAYER_CHANGE
;Z:0.2
;HEIGHT:0.2
G1 E-1 F2100
M73 P4 R2
M73 Q4 S2
G1 Z.4 F720
G1 X118.951 Y99.53 F10800
G1 Z.2 F720
M73 P5 R2
M73 Q5 S2
G1 E1 F2100
M204 S800
;TYPE:Skirt/Brim
;WIDTH:0.42
G1 F600
G1 X120.025 Y98.454 E.04767
G1 X121.5 Y98.057 E.04789
G1 X128.5 Y98.057 E.21948
G1 X129.97 Y98.451 E.04772
M73 Q6 S2
G1 X131.046 Y99.525 E.04767
G1 X131.443 Y101 E.04789
M73 P6 R2
G1 X131.443 Y109 E.25083
G1 X131.049 Y110.47 E.04772
G1 X129.975 Y111.546 E.04767
M73 Q7 S2
G1 X128.5 Y111.943 E.04789
G1 X121.5 Y111.943 E.21948
M73 P7 R2
G1 X120.03 Y111.549 E.04772
G1 X118.954 Y110.475 E.04767
G1 X118.557 Y109 E.04789
M73 Q8 S2
G1 X118.557 Y101 E.25083
G1 X118.935 Y99.588 E.04583
M73 P8 R2
M204 S1000
G1 X119.309 Y99.696 F10800
M204 S800
G1 F600
G1 X119.327 Y99.637 E.00193
G1 X120.383 Y98.69 E.04447
G1 X121.5 Y98.434 E.03593
G1 X128.5 Y98.434 E.21948
M73 Q9 S2
G1 X129.863 Y98.827 E.04448
M73 P9 R2
G1 X130.81 Y99.883 E.04447
G1 X131.066 Y101 E.03593
G1 X131.066 Y109 E.25083
G1 X130.673 Y110.363 E.04448
M73 P10 R2
M73 Q10 S2
G1 X129.617 Y111.31 E.04447
G1 X128.5 Y111.566 E.03593
G1 X121.5 Y111.566 E.21948
G1 X120.137 Y111.173 E.04448
M73 Q11 S2
G1 X119.19 Y110.117 E.04447
M73 P11 R2
G1 X118.934 Y109 E.03593
G1 X118.934 Y101 E.25083
G1 X119.293 Y99.754 E.04066
M73 Q12 S2
M204 S1000
G1 X119.665 Y99.87 F10800
M204 S800
G1 F600
G1 X119.702 Y99.752 E.00388
G1 X120.735 Y98.949 E.04102
G1 X121.5 Y98.811 E.02437
M73 P12 R2
G1 X128.5 Y98.811 E.21948
G1 X129.748 Y99.202 E.04101
G1 X130.551 Y100.235 E.04102
G1 X130.689 Y101 E.02437
G1 X130.689 Y109 E.25083
M73 Q13 S2
G1 X130.298 Y110.248 E.04101
M73 P13 R2
G1 X129.265 Y111.051 E.04102
G1 X128.5 Y111.189 E.02437
G1 X121.5 Y111.189 E.21948
G1 X120.252 Y110.798 E.04101
M73 P14 R2
M73 Q14 S2
G1 X119.449 Y109.765 E.04102
G1 X119.311 Y109 E.02437
G1 X119.311 Y101 E.25083
G1 X119.647 Y99.928 E.03522
M73 P14 R1
M73 Q15 S1
M204 S1000
;WIPE_START
G1 F8640
M73 P15 R1
G1 X119.665 Y99.87 E-.01402
G1 X119.702 Y99.752 E-.02855
G1 X120.735 Y98.949 E-.30211
G1 X121.5 Y98.811 E-.17949
G1 X123.561 Y98.811 E-.47583
;WIPE_END
G1 Z.4 F720
; printing object fmBox_button.stl id:0 copy 0
G1 X122.287 Y101.787 F10800
G1 Z.2 F720
G1 E1 F2100
M204 S800
;TYPE:Perimeter
;WIDTH:0.419999
G1 F600
G1 X127.713 Y101.787 E.17013
G1 X127.713 Y104.5 E.08506
G1 X127.713 Y108.213 E.11642
M73 Q16 S1
G1 X122.287 Y108.213 E.17013
M73 P16 R1
G1 X122.287 Y101.847 E.1996
M204 S1000
G1 X121.91 Y101.41 F10800
M73 P17 R1
M73 Q17 S1
M204 S800
;TYPE:External perimeter
G1 F600
G1 X128.09 Y101.41 E.19377
G1 X128.09 Y104.5 E.09688
G1 X128.09 Y108.59 E.12824
G1 X121.91 Y108.59 E.19377
M73 Q18 S1
G1 X121.91 Y101.47 E.22324
M73 P18 R1
M204 S1000
;WIPE_START
G1 F8640
M73 Q19 S1
G1 X121.91 Y101.41 E-.01385
G1 X126.181 Y101.41 E-.98615
;WIPE_END
G1 Z.4 F720
M73 P19 R1
G1 X126.777 Y101.957 F10800
G1 Z.2 F720
G1 E1 F2100
M204 S800
;TYPE:Solid infill
;WIDTH:0.421671
G1 F600
G1 X127.374 Y102.553 E.02657
G1 X127.374 Y103.089 E.01688
G1 X126.411 Y102.126 E.04289
G1 X125.876 Y102.126 E.01685
G1 X127.374 Y103.624 E.06672
G1 X127.374 Y104.16 E.01688
G1 X125.34 Y102.126 E.09059
G1 X124.805 Y102.126 E.01685
M73 Q20 S1
G1 X127.374 Y104.695 E.11442
G1 X127.374 Y105.231 E.01688
M73 P20 R1
G1 X124.269 Y102.126 E.13829
G1 X123.733 Y102.126 E.01688
G1 X127.374 Y105.767 E.16216
G1 X127.374 Y106.302 E.01685
M73 Q21 S1
G1 X123.198 Y102.126 E.18599
G1 X122.662 Y102.126 E.01688
M73 P21 R1
G1 X127.374 Y106.838 E.20986
G1 X127.374 Y107.374 E.01688
M73 Q22 S1
G1 X122.626 Y102.627 E.21145
G1 X122.626 Y103.162 E.01685
M73 P22 R1
G1 X127.338 Y107.874 E.20986
G1 X126.802 Y107.874 E.01688
M73 Q23 S1
G1 X122.626 Y103.698 E.18599
G1 X122.626 Y104.233 E.01685
M73 P23 R1
G1 X126.267 Y107.874 E.16216
G1 X125.731 Y107.874 E.01688
G1 X122.626 Y104.769 E.13829
G1 X122.626 Y105.305 E.01688
M73 P24 R1
M73 Q24 S1
G1 X125.195 Y107.874 E.11442
G1 X124.66 Y107.874 E.01685
G1 X122.626 Y105.84 E.09059
G1 X122.626 Y106.376 E.01688
G1 X124.124 Y107.874 E.06672
G1 X123.588 Y107.874 E.01688
M73 Q25 S1
G1 X122.626 Y106.912 E.04285
G1 X122.626 Y107.447 E.01685
G1 X123.222 Y108.043 E.02654
M73 P25 R1
M204 S1000
;LAYER_CHANGE
;Z:0.4
;HEIGHT:0.2
;BEFORE_LAYER_CHANGE
G92 E0.0
;0.4


;WIPE_START
G1 F8640
G1 X122.626 Y107.447 E-.19462
G1 X122.626 Y106.912 E-.12353
G1 X123.588 Y107.874 E-.31414
G1 X124.124 Y107.874 E-.12376
G1 X123.377 Y107.127 E-.24395
;WIPE_END
G1 Z.4 F720
;AFTER_LAYER_CHANGE
;0.4
M104 S250 ; set temperature
M140 S90 ; set bed temperature
; stop printing object fmBox_button.stl id:0 copy 0
G1 Z.6
G1 X123.222 Y111.943 F10800
G1 Z.4 F720
G1 E1 F2100
;TYPE:Skirt/Brim
;WIDTH:0.42
G1 F1165
G1 X121.5 Y111.943 E.05399
G1 X120.03 Y111.549 E.04772
G1 X118.954 Y110.475 E.04767
G1 X118.557 Y109 E.04789
G1 X118.557 Y101 E.25083
G1 X118.951 Y99.53 E.04772
M73 Q26 S1
G1 X120.025 Y98.454 E.04767
M73 P26 R1
G1 X121.5 Y98.057 E.04789
G1 X128.5 Y98.057 E.21948
G1 X129.97 Y98.451 E.04772
G1 X131.046 Y99.525 E.04767
G1 X131.443 Y101 E.04789
G1 X131.443 Y109 E.25083
G1 X131.049 Y110.47 E.04772
M73 Q27 S1
G1 X129.975 Y111.546 E.04767
G1 X128.5 Y111.943 E.04789
G1 X123.282 Y111.943 E.16361
M73 P27 R1
G1 X123.282 Y111.566 F10800
G1 F1165
G1 X121.5 Y111.566 E.05587
G1 X120.137 Y111.173 E.04448
G1 X119.19 Y110.117 E.04447
G1 X118.934 Y109 E.03593
G1 X118.934 Y101 E.25083
G1 X119.327 Y99.637 E.04448
G1 X120.383 Y98.69 E.04447
G1 X121.5 Y98.434 E.03593
M73 Q28 S1
G1 X128.5 Y98.434 E.21948
G1 X129.863 Y98.827 E.04448
M73 P28 R1
G1 X130.81 Y99.883 E.04447
G1 X131.066 Y101 E.03593
G1 X131.066 Y109 E.25083
G1 X130.673 Y110.363 E.04448
G1 X129.617 Y111.31 E.04447
G1 X128.5 Y111.566 E.03593
G1 X123.342 Y111.566 E.16173
G1 X123.342 Y111.189 F10800
M73 Q29 S1
G1 F1165
G1 X121.5 Y111.189 E.05775
G1 X120.252 Y110.798 E.04101
M73 P29 R1
G1 X119.449 Y109.765 E.04102
G1 X119.311 Y109 E.02437
G1 X119.311 Y101 E.25083
G1 X119.702 Y99.752 E.04101
G1 X120.735 Y98.949 E.04102
G1 X121.5 Y98.811 E.02437
G1 X128.5 Y98.811 E.21948
G1 X129.748 Y99.202 E.04101
G1 X130.551 Y100.235 E.04102
M73 Q30 S1
G1 X130.689 Y101 E.02437
G1 X130.689 Y109 E.25083
G1 X130.298 Y110.248 E.04101
M73 P30 R1
G1 X129.265 Y111.051 E.04102
G1 X128.5 Y111.189 E.02437
G1 X123.402 Y111.189 E.15984
;WIPE_START
G1 F8640
G1 X123.342 Y111.189 E-.01385
G1 X121.5 Y111.189 E-.42532
G1 X120.252 Y110.798 E-.30198
G1 X119.564 Y109.913 E-.25885
;WIPE_END
G1 Z.6 F720
; printing object fmBox_button.stl id:0 copy 0
G1 X122.132 Y101.632 F10800
G1 Z.4 F720
G1 E1 F2100
M73 Q31 S1
M204 S800
;TYPE:Perimeter
;WIDTH:0.449999
G1 F1165
G1 X127.868 Y101.632 E.19416
G1 X127.868 Y108.368 E.22801
M73 P31 R1
G1 X122.132 Y108.368 E.19416
G1 X122.132 Y101.692 E.22597
M204 S1000
G1 X121.725 Y101.225 F10800
M73 Q32 S1
M204 S800
;TYPE:External perimeter
G1 F1165
G1 X122.4 Y101.225 E.02285
G1 X127.6 Y101.225 E.17601
G1 X128.275 Y101.225 E.02285
M73 P32 R1
G1 X128.275 Y101.9 E.02285
G1 X128.275 Y108.1 E.20986
G1 X128.275 Y108.775 E.02285
G1 X127.6 Y108.775 E.02285
G1 X122.4 Y108.775 E.17601
G1 X121.725 Y108.775 E.02285
G1 X121.725 Y108.1 E.02285
G1 X121.725 Y101.9 E.20986
G1 X121.725 Y101.285 E.02082
M73 Q33 S1
M204 S1000
;WIPE_START
G1 F8640
G1 X121.725 Y101.225 E-.01385
G1 X122.4 Y101.225 E-.15586
G1 X125.996 Y101.225 E-.83029
;WIPE_END
G1 Z.6 F720
M73 P33 R1
G1 X122.609 Y102.031 F10800
G1 Z.4 F720
G1 E1 F2100
;TYPE:Solid infill
;WIDTH:0.548766
G1 F1165
G1 X122.564 Y101.987 E.00265
G1 X122.503 Y102.003 E.00265
G1 X122.487 Y102.064 E.00265
G1 X122.531 Y102.109 E.00265
G1 X122.593 Y102.093 E.00269
G1 X122.366 Y102.888 F10800
;WIDTH:0.38292
G1 F1165
G1 X122.295 Y102.869 E.00208
G1 X122.314 Y102.94 E.00208
G1 X122.355 Y102.929 E.0012
;WIDTH:0.41646
G1 X122.427 Y102.836 E.00365
;WIDTH:0.449999
G1 X122.498 Y102.743 E.00396
G1 X123.243 Y101.998 E.03566
G1 X123.336 Y101.927 E.00396
;WIDTH:0.41646
G1 X123.429 Y101.855 E.00365
;WIDTH:0.38292
G1 X123.388 Y101.866 E.0012
G1 X123.369 Y101.795 E.00208
G1 X123.44 Y101.814 E.00208
;WIDTH:0.449999
G1 X123.818 Y101.998 E.01423
G1 X122.498 Y103.318 E.06319
G1 X122.498 Y103.894 E.0195
G1 X124.394 Y101.998 E.09076
G1 X124.97 Y101.998 E.0195
G1 X122.498 Y104.47 E.11833
G1 X122.498 Y105.046 E.0195
G1 X125.546 Y101.998 E.14591
G1 X126.121 Y101.998 E.01946
M73 Q34 S1
G1 X122.498 Y105.621 E.17343
G1 X122.498 Y106.197 E.0195
M73 P34 R1
G1 X126.697 Y101.998 E.201
G1 X127.273 Y101.998 E.0195
G1 X122.498 Y106.773 E.22858
G1 X122.498 Y107.348 E.01946
G1 X127.502 Y102.345 E.23951
G1 X127.502 Y102.921 E.0195
M73 Q35 S1
G1 X122.498 Y107.924 E.23951
G1 X122.43 Y108.031 E.00429
M73 P35 R1
;WIDTH:0.41646
G1 X122.362 Y108.138 E.00394
;WIDTH:0.38292
G1 X122.582 Y108.155 E.00624
;WIDTH:0.449999
G1 X122.997 Y108.002 E.01497
G1 X127.502 Y103.497 E.21565
G1 X127.502 Y104.072 E.01946
G1 X123.572 Y108.002 E.18813
G1 X124.148 Y108.002 E.0195
G1 X127.502 Y104.648 E.16055
G1 X127.502 Y105.224 E.0195
M73 Q36 S1
G1 X124.724 Y108.002 E.13298
G1 X125.299 Y108.002 E.01946
M73 P36 R1
G1 X127.502 Y105.799 E.10546
G1 X127.603 Y105.736 E.00403
;WIDTH:0.41646
G1 X127.705 Y105.673 E.00372
;WIDTH:0.38292
G1 X127.664 Y105.684 E.0012
G1 X127.645 Y105.613 E.00208
G1 X127.716 Y105.632 E.00208
;WIDTH:0.449999
G1 X127.502 Y106.375 E.02617
G1 X127.502 Y108.002 E.05507
G1 X125.875 Y108.002 E.05507
G1 X127.358 Y106.519 E.07099
;WIPE_START
G1 F8640
G1 X125.875 Y108.002 E-.48427
G1 X127.502 Y108.002 E-.37568
G1 X127.502 Y107.396 E-.14005
;WIPE_END
G1 Z.6 F720
G1 X127.091 Y107.508 F10800
G1 Z.4 F720
G1 E1 F2100
;WIDTH:0.588578
G1 F1165
G1 X127.043 Y107.459 E.00311
G1 X126.977 Y107.477 E.0031
G1 X126.959 Y107.543 E.0031
G1 X127.008 Y107.591 E.00311
G1 X127.073 Y107.573 E.00306
;LAYER_CHANGE
;Z:0.6
;HEIGHT:0.2
;BEFORE_LAYER_CHANGE
G92 E0.0
;0.6


;WIPE_START
G1 F8640
G1 X127.008 Y107.591 E-.01557
G1 X126.959 Y107.543 E-.01584
G1 X126.977 Y107.477 E-.0158
G1 X127.043 Y107.459 E-.0158
G1 X127.091 Y107.508 E-.01584
;WIPE_END
G1 E-.92115 F2100
G1 Z.6 F720
M73 Q37 S1
;AFTER_LAYER_CHANGE
;0.6
; stop printing object fmBox_button.stl id:0 copy 0
G1 Z.8
G1 X127.073 Y111.943 F10800
G1 Z.6 F720
M73 P37 R1
G1 E1 F2100
;TYPE:Skirt/Brim
;WIDTH:0.42
G1 F1159
G1 X121.5 Y111.943 E.17474
G1 X120.03 Y111.549 E.04772
G1 X118.954 Y110.475 E.04767
G1 X118.557 Y109 E.04789
G1 X118.557 Y101 E.25083
G1 X118.951 Y99.53 E.04772
G1 X120.025 Y98.454 E.04767
G1 X121.5 Y98.057 E.04789
M73 Q38 S1
G1 X128.5 Y98.057 E.21948
G1 X129.97 Y98.451 E.04772
M73 P38 R1
G1 X131.046 Y99.525 E.04767
G1 X131.443 Y101 E.04789
G1 X131.443 Y109 E.25083
G1 X131.049 Y110.47 E.04772
G1 X129.975 Y111.546 E.04767
G1 X128.5 Y111.943 E.04789
G1 X127.133 Y111.943 E.04286
G1 X127.133 Y111.566 F10800
M73 Q39 S1
G1 F1159
G1 X121.5 Y111.566 E.17662
G1 X120.137 Y111.173 E.04448
M73 P39 R1
G1 X119.19 Y110.117 E.04447
G1 X118.934 Y109 E.03593
G1 X118.934 Y101 E.25083
G1 X119.327 Y99.637 E.04448
G1 X120.383 Y98.69 E.04447
G1 X121.5 Y98.434 E.03593
G1 X128.5 Y98.434 E.21948
G1 X129.863 Y98.827 E.04448
M73 Q40 S1
G1 X130.81 Y99.883 E.04447
M73 P40 R1
G1 X131.066 Y101 E.03593
G1 X131.066 Y109 E.25083
G1 X130.673 Y110.363 E.04448
G1 X129.617 Y111.31 E.04447
G1 X128.5 Y111.566 E.03593
G1 X127.193 Y111.566 E.04098
G1 X127.193 Y111.189 F10800
G1 F1159
G1 X121.5 Y111.189 E.1785
G1 X120.252 Y110.798 E.04101
G1 X119.449 Y109.765 E.04102
M73 Q41 S1
G1 X119.311 Y109 E.02437
G1 X119.311 Y101 E.25083
G1 X119.702 Y99.752 E.04101
M73 P41 R1
G1 X120.735 Y98.949 E.04102
G1 X121.5 Y98.811 E.02437
G1 X128.5 Y98.811 E.21948
G1 X129.748 Y99.202 E.04101
G1 X130.551 Y100.235 E.04102
G1 X130.689 Y101 E.02437
G1 X130.689 Y109 E.25083
G1 X130.298 Y110.248 E.04101
M73 P42 R1
M73 Q42 S1
G1 X129.265 Y111.051 E.04102
G1 X128.5 Y111.189 E.02437
G1 X127.253 Y111.189 E.0391
;WIPE_START
G1 F8640
G1 X127.193 Y111.189 E-.01385
G1 X122.922 Y111.189 E-.98615
;WIPE_END
G1 Z.8 F720
; printing object fmBox_button.stl id:0 copy 0
G1 X122.132 Y101.632 F10800
G1 Z.6 F720
G1 E1 F2100
M204 S800
;TYPE:Perimeter
;WIDTH:0.449999
G1 F1159
G1 X127.868 Y101.632 E.19416
G1 X127.868 Y108.368 E.22801
G1 X122.132 Y108.368 E.19416
M73 P43 R1
M73 Q43 S1
G1 X122.132 Y101.692 E.22597
M204 S1000
G1 X121.725 Y101.225 F10800
M204 S800
;TYPE:External perimeter
G1 F1159
G1 X128.275 Y101.225 E.22171
G1 X128.275 Y108.775 E.25556
G1 X121.725 Y108.775 E.22171
M73 P44 R1
M73 Q44 S1
G1 X121.725 Y101.285 E.25353
M204 S1000
;WIPE_START
G1 F8640
G1 X121.725 Y101.225 E-.01385
G1 X125.996 Y101.225 E-.98615
;WIPE_END
G1 Z.8 F720
G1 X122.531 Y107.891 F10800
G1 Z.6 F720
G1 E1 F2100
;TYPE:Solid infill
;WIDTH:0.548766
G1 F1159
M73 Q45 S1
G1 X122.487 Y107.936 E.00265
G1 X122.503 Y107.997 E.00265
G1 X122.564 Y108.013 E.00265
G1 X122.609 Y107.969 E.00265
G1 X122.593 Y107.907 E.00269
G1 X123.388 Y108.134 F10800
;WIDTH:0.38292
G1 F1159
G1 X123.369 Y108.205 E.00208
G1 X123.44 Y108.186 E.00208
G1 X123.429 Y108.145 E.0012
;WIDTH:0.41646
G1 X123.336 Y108.073 E.00365
;WIDTH:0.449999
G1 X123.243 Y108.002 E.00396
G1 X122.498 Y107.257 E.03566
G1 X122.427 Y107.164 E.00396
M73 P45 R1
;WIDTH:0.41646
G1 X122.355 Y107.071 E.00365
;WIDTH:0.38292
G1 X122.366 Y107.112 E.0012
G1 X122.295 Y107.131 E.00208
G1 X122.314 Y107.06 E.00208
;WIDTH:0.449999
G1 X122.498 Y106.682 E.01423
G1 X123.818 Y108.002 E.06319
G1 X124.394 Y108.002 E.0195
G1 X122.498 Y106.106 E.09076
G1 X122.498 Y105.53 E.0195
G1 X124.97 Y108.002 E.11833
G1 X125.546 Y108.002 E.0195
G1 X122.498 Y104.954 E.14591
G1 X122.498 Y104.379 E.01946
G1 X126.121 Y108.002 E.17343
G1 X126.697 Y108.002 E.0195
G1 X122.498 Y103.803 E.201
G1 X122.498 Y103.227 E.0195
M73 P46 R1
M73 Q46 S1
G1 X127.273 Y108.002 E.22858
G1 X127.426 Y108.025 E.00524
;WIDTH:0.41646
G1 X127.579 Y108.049 E.00481
;WIDTH:0.38292
G1 X127.56 Y108.12 E.00208
G1 X127.631 Y108.101 E.00208
G1 X127.62 Y108.06 E.0012
;WIDTH:0.449999
G1 X127.502 Y107.655 E.01428
G1 X122.498 Y102.652 E.23951
G1 X122.498 Y102.076 E.0195
G1 X127.502 Y107.079 E.23951
G1 X127.502 Y106.503 E.0195
M73 Q47 S1
G1 X122.997 Y101.998 E.21565
G1 X123.572 Y101.998 E.01946
M73 P47 R1
G1 X127.502 Y105.928 E.18813
G1 X127.502 Y105.352 E.0195
G1 X124.148 Y101.998 E.16055
G1 X124.724 Y101.998 E.0195
G1 X127.502 Y104.776 E.13298
G1 X127.705 Y104.327 E.01668
;WIDTH:0.38292
G1 X127.716 Y104.368 E.0012
G1 X127.645 Y104.387 E.00208
G1 X127.664 Y104.316 E.00208
;WIDTH:0.41646
G1 X127.583 Y104.258 E.00309
;WIDTH:0.449999
G1 X127.502 Y104.201 E.00335
G1 X125.299 Y101.998 E.10546
G1 X127.502 Y101.998 E.07457
M73 P48 R1
M73 Q48 S1
G1 X127.502 Y103.625 E.05507
G1 X126.019 Y102.142 E.07099
;WIPE_START
